;FLAVOR:Marlin
;TIME:4111
;Filament used: 2.54482m
;Layer height: 0.2
;MINX:84.976
;MINY:64.5
;MINZ:0.2
;MAXX:150.024
;MAXY:170.5
;MAXZ:10.2
;Generated with Cura_SteamEngine 4.9.0
M140 S50
M105
M190 S50
M104 S200
M105
M109 S200
M82 ;absolute extrusion mode
; Ender 3 Custom Start G-code
G92 E0 ; Reset Extruder
G28 ; Home all axes
G1 Z2.0 F3000 ; Move Z Axis up little to prevent scratching of Heat Bed
G1 X0.1 Y20 Z0.3 F5000.0 ; Move to start position
G1 X0.1 Y200.0 Z0.3 F1500.0 E15 ; Draw the first line
G1 X0.4 Y200.0 Z0.3 F5000.0 ; Move to side a little
G1 X0.4 Y20 Z0.3 F1500.0 E30 ; Draw the second line
G92 E0 ; Reset Extruder
G1 Z2.0 F3000 ; Move Z Axis up little to prevent scratching of Heat Bed
G1 X5 Y20 Z0.3 F5000.0 ; Move over to prevent blob squish
G92 E0
G92 E0
G1 F2700 E-5
;LAYER_COUNT:51
;LAYER:0
M107
G0 F6000 X87.542 Y68.458 Z0.2
;TYPE:SKIRT
G1 F2700 E0
G1 F1200 X88.174 Y67.764 E0.03122
G1 X88.862 Y67.127 E0.0624
G1 X89.602 Y66.551 E0.09359
G1 X90.388 Y66.039 E0.12479
G1 X91.215 Y65.597 E0.15598
G1 X92.077 Y65.227 E0.18718
G1 X92.967 Y64.931 E0.21838
G1 X93.879 Y64.713 E0.24957
G1 X94.806 Y64.572 E0.28075
G1 X95.677 Y64.513 E0.30979
G1 X95.998 Y64.504 E0.32047
G1 X96.306 Y64.5 E0.33071
G1 X138.317 Y64.5 E1.72801
G1 X139.173 Y64.511 E1.75648
G1 X140.109 Y64.565 E1.78766
G1 X141.037 Y64.697 E1.81884
G1 X141.951 Y64.909 E1.85004
G1 X142.843 Y65.198 E1.88123
G1 X143.708 Y65.561 E1.91243
G1 X144.538 Y65.997 E1.94361
G1 X145.329 Y66.502 E1.97483
G1 X146.073 Y67.073 E2.00602
G1 X146.766 Y67.705 E2.03722
G1 X147.403 Y68.393 E2.0684
G1 X147.978 Y69.134 E2.0996
G1 X148.489 Y69.92 E2.13078
G1 X148.931 Y70.748 E2.162
G1 X149.3 Y71.61 E2.19318
G1 X149.595 Y72.5 E2.22437
G1 X149.813 Y73.412 E2.25556
G1 X149.953 Y74.34 E2.28677
G1 X150.011 Y75.201 E2.31547
G1 X150.02 Y75.521 E2.32612
G1 X150.024 Y75.83 E2.3364
G1 X150.023 Y158.9 E5.09932
G1 X150.014 Y159.627 E5.1235
G1 X149.963 Y160.564 E5.15471
G1 X149.831 Y161.492 E5.18589
G1 X149.622 Y162.406 E5.21707
G1 X149.335 Y163.299 E5.24827
G1 X148.973 Y164.165 E5.27949
G1 X148.539 Y164.996 E5.31067
G1 X148.035 Y165.787 E5.34186
G1 X147.466 Y166.532 E5.37304
G1 X146.835 Y167.227 E5.40426
G1 X146.148 Y167.865 E5.43545
G1 X145.409 Y168.442 E5.46663
G1 X144.623 Y168.954 E5.49783
G1 X143.797 Y169.397 E5.52901
G1 X142.935 Y169.769 E5.56023
G1 X142.046 Y170.065 E5.5914
G1 X141.134 Y170.285 E5.6226
G1 X140.207 Y170.426 E5.65379
G1 X139.323 Y170.487 E5.68326
G1 X139.002 Y170.496 E5.69394
G1 X138.694 Y170.5 E5.70418
G1 X96.541 Y170.499 E7.1062
G1 X95.843 Y170.49 E7.12942
G1 X94.907 Y170.438 E7.1606
G1 X93.978 Y170.306 E7.1918
G1 X93.064 Y170.096 E7.223
G1 X92.171 Y169.809 E7.25419
G1 X91.306 Y169.446 E7.28539
G1 X90.475 Y169.012 E7.31658
G1 X89.684 Y168.508 E7.34777
G1 X88.939 Y167.938 E7.37897
G1 X88.245 Y167.307 E7.41017
G1 X87.608 Y166.62 E7.44133
G1 X87.031 Y165.88 E7.47254
G1 X86.519 Y165.094 E7.50374
G1 X86.076 Y164.267 E7.53494
G1 X85.705 Y163.406 E7.56613
G1 X85.409 Y162.516 E7.59732
G1 X85.19 Y161.604 E7.62852
G1 X85.049 Y160.677 E7.6597
G1 X84.989 Y159.788 E7.68934
G1 X84.98 Y159.455 E7.70042
G1 X84.976 Y159.158 E7.7103
G1 X84.977 Y76.025 E10.47531
G1 X84.986 Y75.36 E10.49743
G1 X85.039 Y74.424 E10.52861
G1 X85.171 Y73.495 E10.55982
G1 X85.382 Y72.581 E10.59102
G1 X85.67 Y71.689 E10.6222
G1 X86.033 Y70.824 E10.6534
G1 X86.468 Y69.993 E10.6846
G1 X86.972 Y69.203 E10.71576
G1 X87.542 Y68.458 E10.74696
G0 F6000 X87.937 Y68.611
G1 F1200 X88.565 Y67.939 E10.77755
G1 X89.25 Y67.323 E10.80819
G1 X89.986 Y66.77 E10.83881
G1 X90.767 Y66.282 E10.86944
G1 X91.587 Y65.864 E10.90006
G1 X92.441 Y65.519 E10.93069
G1 X93.321 Y65.249 E10.96131
G1 X94.221 Y65.057 E10.99191
G1 X95.135 Y64.943 E11.02255
G1 X95.688 Y64.913 E11.04097
G1 X96.009 Y64.904 E11.05165
G1 X96.306 Y64.9 E11.06153
G1 X138.317 Y64.9 E12.45882
G1 X139.167 Y64.911 E12.48709
G1 X140.086 Y64.964 E12.51771
G1 X140.997 Y65.097 E12.54833
G1 X141.893 Y65.308 E12.57895
G1 X142.767 Y65.596 E12.60956
G1 X143.614 Y65.959 E12.6402
G1 X144.425 Y66.394 E12.67081
G1 X145.195 Y66.898 E12.70142
G1 X145.919 Y67.467 E12.73205
G1 X146.591 Y68.097 E12.76269
G1 X147.206 Y68.782 E12.7933
G1 X147.759 Y69.518 E12.82392
G1 X148.246 Y70.299 E12.85454
G1 X148.663 Y71.12 E12.88516
G1 X149.008 Y71.974 E12.9158
G1 X149.277 Y72.854 E12.9464
G1 X149.469 Y73.755 E12.97704
G1 X149.582 Y74.668 E13.00764
G1 X149.611 Y75.212 E13.02576
G1 X149.62 Y75.532 E13.03641
G1 X149.624 Y75.83 E13.04632
G1 X149.623 Y158.895 E15.80907
G1 X149.614 Y159.622 E15.83326
G1 X149.563 Y160.541 E15.86387
G1 X149.432 Y161.453 E15.89451
G1 X149.222 Y162.349 E15.92512
G1 X148.936 Y163.224 E15.95574
G1 X148.575 Y164.071 E15.98636
G1 X148.141 Y164.883 E16.01699
G1 X147.639 Y165.655 E16.04761
G1 X147.071 Y166.38 E16.07825
G1 X146.443 Y167.053 E16.10886
G1 X145.759 Y167.669 E16.13948
G1 X145.024 Y168.223 E16.17009
G1 X144.244 Y168.712 E16.20071
G1 X143.424 Y169.131 E16.23134
G1 X142.571 Y169.477 E16.26196
G1 X141.691 Y169.748 E16.29258
G1 X140.791 Y169.941 E16.3232
G1 X139.877 Y170.056 E16.35383
G1 X139.312 Y170.087 E16.37265
G1 X138.991 Y170.096 E16.38334
G1 X138.694 Y170.1 E16.39321
G1 X96.546 Y170.099 E17.79506
G1 X95.848 Y170.09 E17.81828
G1 X94.929 Y170.038 E17.8489
G1 X94.018 Y169.907 E17.87951
G1 X93.122 Y169.697 E17.91012
G1 X92.247 Y169.41 E17.94074
G1 X91.4 Y169.048 E17.97138
G1 X90.588 Y168.614 E18.002
G1 X89.817 Y168.112 E18.0326
G1 X89.092 Y167.544 E18.06324
G1 X88.419 Y166.915 E18.09387
G1 X87.804 Y166.231 E18.12447
G1 X87.25 Y165.496 E18.15508
G1 X86.762 Y164.715 E18.18571
G1 X86.343 Y163.895 E18.21634
G1 X85.997 Y163.042 E18.24695
G1 X85.727 Y162.162 E18.27757
G1 X85.534 Y161.261 E18.30822
G1 X85.42 Y160.348 E18.33882
G1 X85.389 Y159.777 E18.35784
G1 X85.38 Y159.444 E18.36892
G1 X85.376 Y159.158 E18.37843
G1 X85.377 Y76.031 E21.14325
G1 X85.386 Y75.366 E21.16537
G1 X85.438 Y74.446 E21.19602
G1 X85.57 Y73.535 E21.22663
G1 X85.781 Y72.639 E21.25725
G1 X86.068 Y71.764 E21.28788
G1 X86.431 Y70.918 E21.3185
G1 X86.865 Y70.106 E21.34912
G1 X87.368 Y69.335 E21.37974
G1 X87.937 Y68.611 E21.41036
G0 F6000 X88.331 Y68.767
G1 F1200 X88.957 Y68.117 E21.44038
G1 X89.638 Y67.524 E21.47041
G1 X90.37 Y66.994 E21.50047
G1 X91.145 Y66.531 E21.5305
G1 X91.958 Y66.138 E21.56053
G1 X92.803 Y65.818 E21.59058
G1 X93.672 Y65.575 E21.62059
G1 X94.56 Y65.409 E21.65064
G1 X95.699 Y65.313 E21.68866
G1 X96.02 Y65.304 E21.69934
G1 X96.306 Y65.3 E21.70885
G1 X138.317 Y65.3 E23.10614
G1 X139.161 Y65.311 E23.13422
G1 X140.063 Y65.364 E23.16427
G1 X140.956 Y65.496 E23.1943
G1 X141.834 Y65.707 E23.22433
G1 X142.69 Y65.995 E23.25437
G1 X143.517 Y66.357 E23.28439
G1 X144.309 Y66.792 E23.31445
G1 X145.06 Y67.294 E23.34449
G1 X145.763 Y67.861 E23.37453
G1 X146.413 Y68.488 E23.40457
G1 X147.005 Y69.17 E23.43461
G1 X147.535 Y69.901 E23.46464
G1 X147.997 Y70.677 E23.49468
G1 X148.39 Y71.49 E23.52471
G1 X148.708 Y72.335 E23.55474
G1 X148.951 Y73.205 E23.58478
G1 X149.116 Y74.093 E23.61482
G1 X149.211 Y75.223 E23.65254
G1 X149.22 Y75.543 E23.66319
G1 X149.224 Y75.83 E23.67273
G1 X149.223 Y158.89 E26.43532
G1 X149.214 Y159.617 E26.4595
G1 X149.163 Y160.519 E26.48955
G1 X149.032 Y161.413 E26.5196
G1 X148.823 Y162.291 E26.54962
G1 X148.537 Y163.148 E26.57967
G1 X148.176 Y163.976 E26.60971
G1 X147.744 Y164.768 E26.63972
G1 X147.243 Y165.52 E26.66977
G1 X146.677 Y166.224 E26.69982
G1 X146.052 Y166.875 E26.72983
G1 X145.371 Y167.469 E26.75989
G1 X144.64 Y168 E26.78994
G1 X143.866 Y168.464 E26.81996
G1 X143.053 Y168.858 E26.85
G1 X142.209 Y169.178 E26.88003
G1 X141.339 Y169.423 E26.91009
G1 X140.452 Y169.589 E26.9401
G1 X139.301 Y169.687 E26.97852
G1 X138.98 Y169.696 E26.9892
G1 X138.694 Y169.7 E26.99872
G1 X96.551 Y169.699 E28.4004
G1 X95.853 Y169.69 E28.42362
G1 X94.952 Y169.639 E28.45363
G1 X94.058 Y169.507 E28.48369
G1 X93.18 Y169.298 E28.51371
G1 X92.323 Y169.011 E28.54377
G1 X91.496 Y168.65 E28.57378
G1 X90.703 Y168.217 E28.60383
G1 X89.952 Y167.716 E28.63386
G1 X89.248 Y167.15 E28.6639
G1 X88.597 Y166.524 E28.69394
G1 X88.004 Y165.843 E28.72397
G1 X87.474 Y165.112 E28.754
G1 X87.01 Y164.337 E28.78405
G1 X86.616 Y163.524 E28.8141
G1 X86.296 Y162.68 E28.84412
G1 X86.052 Y161.81 E28.87417
G1 X85.886 Y160.922 E28.90422
G1 X85.789 Y159.767 E28.94277
G1 X85.78 Y159.434 E28.95385
G1 X85.776 Y159.158 E28.96303
G1 X85.777 Y76.036 E31.72768
G1 X85.786 Y75.371 E31.7498
G1 X85.838 Y74.469 E31.77985
G1 X85.97 Y73.576 E31.80987
G1 X86.18 Y72.698 E31.8399
G1 X86.467 Y71.841 E31.86996
G1 X86.829 Y71.014 E31.89998
G1 X87.262 Y70.222 E31.93
G1 X87.764 Y69.471 E31.96005
G1 X88.331 Y68.767 E31.99011
G1 F2700 E26.99011
;MESH:Vedeni.stl
G0 F6000 X112.746 Y116.339
G0 X124.964 Y116.414
G0 X125.312 Y116.764
G0 X125.368 Y140.932
G0 X132.039 Y153.927
G0 X131.125 Y152.788
G0 X130.704 Y154.098
G0 X130.659 Y154.505
G0 X130.707 Y154.917
G0 X130.845 Y155.304
G0 X131.064 Y155.654
G0 X132.062 Y156.454
;TYPE:WALL-INNER
G1 F2700 E31.99011
G1 F1200 X132.506 Y156.503 E32.00497
G1 X132.953 Y156.451 E32.01994
G1 X133.375 Y156.301 E32.03484
G1 X133.755 Y156.062 E32.04977
G1 X134.07 Y155.743 E32.06468
G1 X134.307 Y155.361 E32.07963
G1 X134.454 Y154.938 E32.09452
G1 X134.503 Y154.494 E32.10938
G1 X134.451 Y154.047 E32.12435
G1 X134.301 Y153.625 E32.13924
G1 X134.062 Y153.245 E32.15418
G1 X133.743 Y152.93 E32.16909
G1 X133.361 Y152.693 E32.18404
G1 X132.938 Y152.546 E32.19893
G1 X132.494 Y152.497 E32.21379
G1 X132.047 Y152.549 E32.22876
G1 X131.625 Y152.699 E32.24365
G1 X131.245 Y152.938 E32.25858
G1 X130.93 Y153.257 E32.2735
G1 X130.693 Y153.639 E32.28845
G1 X130.546 Y154.062 E32.30334
G1 X130.497 Y154.506 E32.3182
G1 X130.549 Y154.953 E32.33317
G1 X130.699 Y155.375 E32.34806
G1 X130.938 Y155.755 E32.36299
G1 X131.257 Y156.07 E32.3779
G1 X131.639 Y156.307 E32.39286
G1 X132.062 Y156.454 E32.40775
G0 F6000 X132.15 Y156.061
;TYPE:WALL-OUTER
G1 F1200 X132.505 Y156.1 E32.41963
G1 X132.862 Y156.059 E32.43158
G1 X133.199 Y155.939 E32.44348
G1 X133.503 Y155.748 E32.45542
G1 X133.754 Y155.494 E32.4673
G1 X133.944 Y155.188 E32.47928
G1 X134.061 Y154.85 E32.49117
G1 X134.1 Y154.495 E32.50305
G1 X134.059 Y154.138 E32.515
G1 X133.939 Y153.801 E32.5269
G1 X133.748 Y153.497 E32.53884
G1 X133.494 Y153.246 E32.55072
G1 X133.188 Y153.056 E32.5627
G1 X132.85 Y152.939 E32.5746
G1 X132.495 Y152.9 E32.58648
G1 X132.138 Y152.941 E32.59843
G1 X131.801 Y153.061 E32.61033
G1 X131.497 Y153.252 E32.62227
G1 X131.246 Y153.506 E32.63414
G1 X131.056 Y153.812 E32.64612
G1 X130.939 Y154.15 E32.65802
G1 X130.9 Y154.505 E32.6699
G1 X130.941 Y154.862 E32.68185
G1 X131.061 Y155.199 E32.69375
G1 X131.252 Y155.503 E32.70569
G1 X131.506 Y155.754 E32.71757
G1 X131.812 Y155.944 E32.72955
G1 X132.15 Y156.061 E32.74144
G0 F6000 X132.054 Y156.49
G1 F2700 E27.74144
G0 F6000 X131.064 Y155.654
G0 X130.845 Y155.304
G0 X130.707 Y154.917
G0 X130.659 Y154.505
G0 X130.704 Y154.098
G0 X130.838 Y153.708
G0 X131.057 Y153.357
G0 X132.493 Y152.306
G0 X132.495 Y153.766
G0 X132.505 Y81.234
G0 X132.507 Y82.694
G0 X132.506 Y82.503
;TYPE:WALL-INNER
G1 F2700 E32.74144
G1 F1200 X132.953 Y82.451 E32.75641
G1 X133.375 Y82.301 E32.77131
G1 X133.755 Y82.062 E32.78624
G1 X134.07 Y81.743 E32.80115
G1 X134.307 Y81.361 E32.8161
G1 X134.454 Y80.938 E32.83099
G1 X134.503 Y80.494 E32.84585
G1 X134.451 Y80.047 E32.86082
G1 X134.301 Y79.625 E32.87572
G1 X134.062 Y79.245 E32.89065
G1 X133.743 Y78.93 E32.90556
G1 X133.361 Y78.693 E32.92051
G1 X132.938 Y78.546 E32.9354
G1 X132.494 Y78.497 E32.95026
G1 X132.047 Y78.549 E32.96523
G1 X131.625 Y78.699 E32.98012
G1 X131.245 Y78.938 E32.99505
G1 X130.93 Y79.257 E33.00997
G1 X130.693 Y79.639 E33.02492
G1 X130.546 Y80.062 E33.03981
G1 X130.497 Y80.506 E33.05467
G1 X130.549 Y80.953 E33.06964
G1 X130.699 Y81.375 E33.08453
G1 X130.938 Y81.755 E33.09946
G1 X131.257 Y82.07 E33.11437
G1 X131.639 Y82.307 E33.12933
G1 X132.062 Y82.454 E33.14422
G1 X132.506 Y82.503 E33.15908
G0 F6000 X132.505 Y82.1
;TYPE:WALL-OUTER
G1 F1200 X132.862 Y82.059 E33.17103
G1 X133.199 Y81.939 E33.18293
G1 X133.503 Y81.748 E33.19487
G1 X133.754 Y81.494 E33.20675
G1 X133.944 Y81.188 E33.21873
G1 X134.061 Y80.85 E33.23062
G1 X134.1 Y80.495 E33.2425
G1 X134.059 Y80.138 E33.25445
G1 X133.939 Y79.801 E33.26635
G1 X133.748 Y79.497 E33.27829
G1 X133.494 Y79.246 E33.29017
G1 X133.188 Y79.056 E33.30215
G1 X132.85 Y78.939 E33.31405
G1 X132.495 Y78.9 E33.32592
G1 X132.138 Y78.941 E33.33788
G1 X131.801 Y79.061 E33.34977
G1 X131.497 Y79.252 E33.36172
G1 X131.246 Y79.506 E33.37359
G1 X131.056 Y79.812 E33.38557
G1 X130.939 Y80.15 E33.39747
G1 X130.9 Y80.505 E33.40935
G1 X130.941 Y80.862 E33.4213
G1 X131.061 Y81.199 E33.4332
G1 X131.252 Y81.503 E33.44514
G1 X131.506 Y81.754 E33.45702
G1 X131.812 Y81.944 E33.469
G1 X132.15 Y82.061 E33.48089
G1 X132.505 Y82.1 E33.49277
G0 F6000 X132.506 Y82.54
G1 F2700 E28.49277
G0 F6000 X131.138 Y82.221
G0 X132.004 Y81.042
G0 X125.311 Y82.221
G0 X126.786 Y82.221
G0 X126.415 Y109.77
G0 X126.37 Y110.116
G0 X126.227 Y110.463
G0 X126.001 Y110.765
G0 X125.704 Y110.994
G0 X125.355 Y111.141
G0 X109.993 Y111.35
;TYPE:WALL-INNER
G1 F2700 E33.49277
G1 F1200 X125.014 Y111.35 E33.99237
G1 X125.399 Y111.297 E34.0053
G1 X125.785 Y111.134 E34.01923
G1 X126.116 Y110.879 E34.03313
G1 X126.369 Y110.543 E34.04712
G1 X126.527 Y110.158 E34.06096
G1 X126.576 Y109.781 E34.07361
G1 X126.576 Y77.96 E35.13198
G1 X126.522 Y77.576 E35.14487
G1 X126.36 Y77.19 E35.1588
G1 X126.102 Y76.859 E35.17275
G1 X125.77 Y76.607 E35.18662
G1 X125.499 Y76.497 E35.19635
G1 X125.382 Y76.449 E35.20055
G1 X125.007 Y76.4 E35.21313
G1 X109.986 Y76.4 E35.71273
G1 X109.601 Y76.453 E35.72566
G1 X109.497 Y76.496 E35.7294
G1 X109.215 Y76.616 E35.73959
G1 X108.884 Y76.871 E35.75349
G1 X108.631 Y77.207 E35.76748
G1 X108.473 Y77.592 E35.78132
G1 X108.424 Y77.969 E35.79397
G1 X108.424 Y109.79 E36.85234
G1 X108.478 Y110.174 E36.86523
G1 X108.64 Y110.56 E36.87916
G1 X108.898 Y110.891 E36.89312
G1 X109.23 Y111.143 E36.90698
G1 X109.618 Y111.301 E36.92091
G1 X109.993 Y111.35 E36.93349
G0 F6000 X110.019 Y110.95
;TYPE:WALL-OUTER
G1 F1200 X124.987 Y110.95 E37.43133
G1 X125.292 Y110.908 E37.44157
G1 X125.582 Y110.786 E37.45203
G1 X125.829 Y110.595 E37.46242
G1 X126.018 Y110.344 E37.47287
G1 X126.137 Y110.054 E37.48329
G1 X126.176 Y109.755 E37.49332
G1 X126.176 Y77.988 E38.5499
G1 X126.133 Y77.683 E38.56014
G1 X126.012 Y77.394 E38.57056
G1 X125.819 Y77.146 E38.58102
G1 X125.57 Y76.958 E38.59139
G1 X125.279 Y76.839 E38.60185
G1 X124.981 Y76.8 E38.61185
G1 X110.013 Y76.8 E39.10968
G1 X109.708 Y76.842 E39.11992
G1 X109.418 Y76.964 E39.13039
G1 X109.171 Y77.155 E39.14077
G1 X108.982 Y77.406 E39.15122
G1 X108.863 Y77.696 E39.16165
G1 X108.824 Y77.995 E39.17168
G1 X108.824 Y109.762 E40.22825
G1 X108.867 Y110.067 E40.2385
G1 X108.988 Y110.356 E40.24892
G1 X109.181 Y110.604 E40.25937
G1 X109.43 Y110.792 E40.26975
G1 X109.721 Y110.911 E40.2802
G1 X110.019 Y110.95 E40.2902
G0 F6000 X109.991 Y111.389
G1 F2700 E35.2902
G0 F6000 X109.011 Y110.776
G0 X108.78 Y110.478
G0 X108.635 Y110.13
G0 X108.585 Y109.778
G0 X108.62 Y89.13
G0 X108.214 Y82.503
G0 X109.689 Y82.503
G0 X102.995 Y81.043
G0 X103.875 Y82.212
G0 X102.506 Y82.503
;TYPE:WALL-INNER
G1 F2700 E40.2902
G1 F1200 X102.953 Y82.451 E40.30517
G1 X103.375 Y82.301 E40.32006
G1 X103.755 Y82.062 E40.33499
G1 X104.07 Y81.743 E40.34991
G1 X104.307 Y81.361 E40.36486
G1 X104.454 Y80.938 E40.37975
G1 X104.503 Y80.494 E40.39461
G1 X104.451 Y80.047 E40.40958
G1 X104.301 Y79.625 E40.42447
G1 X104.062 Y79.245 E40.4394
G1 X103.743 Y78.93 E40.45431
G1 X103.361 Y78.693 E40.46927
