;FLAVOR:Marlin
;TIME:5954
;Filament used: 4.14261m
;Layer height: 0.2
;MINX:9.622
;MINY:16.108
;MINZ:0.2
;MAXX:215.88
;MAXY:222.367
;MAXZ:14
;Generated with Cura_SteamEngine 4.9.0
M140 S50
M105
M190 S50
M104 S200
M105
M109 S200
M82 ;absolute extrusion mode
; Ender 3 Custom Start G-code
G92 E0 ; Reset Extruder
G28 ; Home all axes
G1 Z2.0 F3000 ; Move Z Axis up little to prevent scratching of Heat Bed
G1 X0.1 Y20 Z0.3 F5000.0 ; Move to start position
G1 X0.1 Y200.0 Z0.3 F1500.0 E15 ; Draw the first line
G1 X0.4 Y200.0 Z0.3 F5000.0 ; Move to side a little
G1 X0.4 Y20 Z0.3 F1500.0 E30 ; Draw the second line
G92 E0 ; Reset Extruder
G1 Z2.0 F3000 ; Move Z Axis up little to prevent scratching of Heat Bed
G1 X5 Y20 Z0.3 F5000.0 ; Move over to prevent blob squish
G92 E0
G92 E0
G1 F2700 E-5
;LAYER_COUNT:70
;LAYER:0
M107
G0 F6000 X185.308 Y19.727 Z0.2
;TYPE:SKIRT
G1 F2700 E0
G1 F1200 X185.818 Y19.23 E0.02369
G1 X186.517 Y18.605 E0.05487
G1 X187.267 Y18.041 E0.08608
G1 X188.062 Y17.544 E0.11727
G1 X188.896 Y17.116 E0.14845
G1 X189.764 Y16.76 E0.17965
G1 X190.659 Y16.48 E0.21084
G1 X191.575 Y16.277 E0.24205
G1 X192.504 Y16.153 E0.27322
G1 X193.441 Y16.108 E0.30442
G1 X194.378 Y16.144 E0.33561
G1 X195.309 Y16.259 E0.36681
G1 X196.227 Y16.453 E0.39801
G1 X197.124 Y16.724 E0.42918
G1 X197.996 Y17.071 E0.46039
G1 X198.834 Y17.491 E0.49157
G1 X199.634 Y17.981 E0.52277
G1 X200.389 Y18.537 E0.55396
G1 X201.032 Y19.096 E0.5823
G1 X201.268 Y19.318 E0.59307
G1 X201.509 Y19.552 E0.60425
G1 X212.288 Y30.332 E1.11128
G1 X212.756 Y30.812 E1.13358
G1 X213.382 Y31.511 E1.16479
G1 X213.945 Y32.26 E1.19595
G1 X214.443 Y33.055 E1.22715
G1 X214.871 Y33.889 E1.25833
G1 X215.227 Y34.757 E1.28954
G1 X215.507 Y35.652 E1.32073
G1 X215.711 Y36.568 E1.35194
G1 X215.835 Y37.497 E1.38311
G1 X215.88 Y38.434 E1.41431
G1 X215.845 Y39.371 E1.4455
G1 X215.73 Y40.302 E1.4767
G1 X215.536 Y41.22 E1.50791
G1 X215.265 Y42.118 E1.53911
G1 X214.918 Y42.989 E1.57029
G1 X214.499 Y43.828 E1.60148
G1 X214.009 Y44.628 E1.63268
G1 X213.453 Y45.383 E1.66387
G1 X212.905 Y46.014 E1.69167
G1 X212.695 Y46.238 E1.70188
G1 X212.448 Y46.493 E1.71369
G1 X202.256 Y56.685 E2.19309
G1 X200.437 Y58.557 E2.2799
G1 X198.73 Y60.415 E2.36382
G1 X197.06 Y62.342 E2.44863
G1 X195.486 Y64.26 E2.53116
G1 X193.926 Y66.278 E2.61599
G1 X192.469 Y68.279 E2.69832
G1 X191.025 Y70.383 E2.78319
G1 X189.666 Y72.487 E2.8665
G1 X188.378 Y74.611 E2.94912
G1 X187.115 Y76.833 E3.03413
G1 X185.935 Y79.055 E3.11781
G1 X184.815 Y81.314 E3.20167
G1 X183.997 Y83.089 E3.26667
G1 X183.437 Y84.318 E3.31159
G1 X183.012 Y85.154 E3.34279
G1 X182.517 Y85.951 E3.37399
G1 X181.956 Y86.703 E3.4052
G1 X181.33 Y87.407 E3.43653
G1 X180.962 Y87.787 E3.45412
G1 X180.721 Y88.029 E3.46548
G1 X180.081 Y88.65 E3.49514
G1 X177.926 Y90.811 E3.59665
G1 X177.629 Y91.119 E3.61088
G1 X177.372 Y91.378 E3.62302
G1 X176.729 Y92.002 E3.65282
G1 X174.612 Y94.125 E3.75254
G1 X174.296 Y94.452 E3.76766
G1 X174.049 Y94.7 E3.7793
G1 X173.393 Y95.337 E3.80971
G1 X171.305 Y97.43 E3.90805
G1 X170.947 Y97.8 E3.92517
G1 X170.708 Y98.04 E3.93643
G1 X170.066 Y98.664 E3.96621
G1 X167.972 Y100.763 E4.06482
G1 X167.612 Y101.135 E4.08204
G1 X167.377 Y101.371 E4.09312
G1 X166.718 Y102.012 E4.1237
G1 X164.679 Y104.056 E4.21972
G1 X164.302 Y104.446 E4.23776
G1 X164.057 Y104.692 E4.24931
G1 X163.398 Y105.332 E4.27987
G1 X161.345 Y107.392 E4.3766
G1 X160.998 Y107.751 E4.3932
G1 X160.75 Y108 E4.40489
G1 X160.092 Y108.639 E4.4354
G1 X157.953 Y110.784 E4.53615
G1 X157.616 Y111.133 E4.55229
G1 X157.369 Y111.381 E4.56393
G1 X156.733 Y111.999 E4.59342
G1 X154.63 Y114.108 E4.69248
G1 X154.337 Y114.411 E4.7065
G1 X154.102 Y114.647 E4.71758
G1 X153.317 Y115.411 E4.75401
G1 X151.319 Y117.418 E4.84821
G1 X150.989 Y117.76 E4.86401
G1 X150.729 Y118.021 E4.87627
G1 X150.063 Y118.667 E4.90713
G1 X147.98 Y120.755 E5.00522
G1 X147.622 Y121.125 E5.02235
G1 X147.383 Y121.365 E5.03361
G1 X146.741 Y121.989 E5.06339
G1 X144.663 Y124.071 E5.16122
G1 X144.304 Y124.444 E5.17844
G1 X144.05 Y124.699 E5.19041
G1 X143.403 Y125.328 E5.22043
G1 X141.352 Y127.385 E5.31704
G1 X141.005 Y127.744 E5.33365
G1 X140.757 Y127.993 E5.34534
G1 X140.099 Y128.632 E5.37584
G1 X137.956 Y130.781 E5.47678
G1 X137.642 Y131.106 E5.49181
G1 X137.395 Y131.354 E5.50346
G1 X136.769 Y131.962 E5.53248
G1 X134.608 Y134.129 E5.63427
G1 X134.311 Y134.437 E5.6485
G1 X134.054 Y134.696 E5.66064
G1 X133.411 Y135.32 E5.69044
G1 X131.294 Y137.443 E5.79016
G1 X130.978 Y137.77 E5.80528
G1 X130.731 Y138.018 E5.81692
G1 X130.075 Y138.655 E5.84733
G1 X127.987 Y140.748 E5.94567
G1 X127.629 Y141.118 E5.96279
G1 X127.39 Y141.358 E5.97405
G1 X126.748 Y141.982 E6.00383
G1 X124.655 Y144.08 E6.1024
G1 X124.297 Y144.45 E6.11952
G1 X124.058 Y144.69 E6.13079
G1 X123.416 Y145.314 E6.16056
G1 X121.338 Y147.396 E6.2584
G1 X120.979 Y147.769 E6.27562
G1 X120.725 Y148.024 E6.28759
G1 X120.078 Y148.653 E6.3176
G1 X118.027 Y150.71 E6.41422
G1 X117.68 Y151.069 E6.43082
G1 X117.432 Y151.318 E6.44251
G1 X116.774 Y151.957 E6.47302
G1 X114.631 Y154.106 E6.57396
G1 X114.317 Y154.431 E6.58899
G1 X114.07 Y154.679 E6.60063
G1 X113.444 Y155.287 E6.62966
G1 X111.283 Y157.454 E6.73145
G1 X110.986 Y157.762 E6.74568
G1 X110.729 Y158.021 E6.75781
G1 X110.086 Y158.645 E6.78761
G1 X107.969 Y160.768 E6.88733
G1 X107.653 Y161.095 E6.90246
G1 X107.406 Y161.343 E6.9141
G1 X106.75 Y161.98 E6.94451
G1 X104.662 Y164.073 E7.04284
G1 X104.304 Y164.443 E7.05997
G1 X104.065 Y164.683 E7.07123
G1 X103.423 Y165.307 E7.10101
G1 X101.335 Y167.4 E7.19934
G1 X100.986 Y167.761 E7.21604
G1 X100.742 Y168.005 E7.22752
G1 X100.107 Y168.622 E7.25696
G1 X97.997 Y170.739 E7.35638
G1 X97.661 Y171.087 E7.37247
G1 X97.409 Y171.339 E7.38432
G1 X96.786 Y171.945 E7.41323
G1 X94.702 Y174.035 E7.51139
G1 X94.355 Y174.394 E7.528
G1 X94.107 Y174.643 E7.53969
G1 X93.449 Y175.282 E7.57019
G1 X91.29 Y177.447 E7.67189
G1 X90.993 Y177.755 E7.68612
G1 X90.736 Y178.014 E7.69826
G1 X90.093 Y178.638 E7.72806
G1 X87.976 Y180.761 E7.82777
G1 X87.66 Y181.088 E7.8429
G1 X87.413 Y181.336 E7.85454
G1 X86.757 Y181.973 E7.88495
G1 X84.669 Y184.066 E7.98328
G1 X84.311 Y184.436 E8.00041
G1 X84.072 Y184.676 E8.01167
G1 X83.43 Y185.3 E8.04145
G1 X81.337 Y187.398 E8.14002
G1 X80.979 Y187.768 E8.15714
G1 X80.74 Y188.008 E8.16841
G1 X80.098 Y188.632 E8.19818
G1 X78.02 Y190.714 E8.29602
G1 X77.661 Y191.087 E8.31324
G1 X77.407 Y191.342 E8.32521
G1 X76.76 Y191.971 E8.35522
G1 X74.709 Y194.028 E8.45184
G1 X74.362 Y194.387 E8.46844
G1 X74.114 Y194.636 E8.48013
G1 X73.456 Y195.275 E8.51064
G1 X71.313 Y197.424 E8.61158
G1 X70.999 Y197.749 E8.62661
G1 X70.752 Y197.997 E8.63825
G1 X70.126 Y198.605 E8.66728
G1 X67.965 Y200.772 E8.76906
G1 X67.668 Y201.08 E8.7833
G1 X67.411 Y201.339 E8.79543
G1 X66.768 Y201.963 E8.82523
G1 X64.651 Y204.086 E8.92495
G1 X64.335 Y204.413 E8.94008
G1 X64.088 Y204.661 E8.95172
G1 X63.432 Y205.298 E8.98213
G1 X61.344 Y207.391 E9.08046
G1 X60.986 Y207.761 E9.09758
G1 X60.747 Y208.001 E9.10885
G1 X60.105 Y208.625 E9.13863
G1 X58.011 Y210.724 E9.23724
G1 X57.651 Y211.096 E9.25446
G1 X57.416 Y211.332 E9.26554
G1 X56.757 Y211.973 E9.29611
G1 X54.706 Y214.029 E9.3927
G1 X54.335 Y214.412 E9.41044
G1 X54.087 Y214.66 E9.4221
G1 X53.862 Y214.878 E9.43252
G1 X53.162 Y215.501 E9.46369
G1 X52.41 Y216.063 E9.49492
G1 X51.614 Y216.558 E9.52609
G1 X50.778 Y216.984 E9.5573
G1 X49.909 Y217.337 E9.5885
G1 X48.749 Y217.68 E9.62873
G1 X48.038 Y217.849 E9.65304
G1 X45.466 Y218.5 E9.74128
G1 X43.055 Y219.184 E9.82463
G1 X40.654 Y219.938 E9.90834
G1 X38.276 Y220.761 E9.99203
G1 X35.993 Y221.623 E10.0732
G1 X35.613 Y221.759 E10.08662
G1 X34.715 Y222.029 E10.11781
G1 X33.797 Y222.221 E10.149
G1 X32.866 Y222.333 E10.18019
G1 X31.929 Y222.367 E10.21138
G1 X30.992 Y222.32 E10.24258
G1 X30.063 Y222.194 E10.27376
G1 X29.148 Y221.989 E10.30495
G1 X28.253 Y221.706 E10.33617
G1 X27.386 Y221.349 E10.36736
G1 X26.553 Y220.919 E10.39853
G1 X25.759 Y220.419 E10.42974
G1 X25.01 Y219.854 E10.46095
G1 X24.459 Y219.368 E10.48538
G1 X24.211 Y219.134 E10.49673
G1 X23.982 Y218.911 E10.50736
G1 X13.206 Y208.134 E11.01425
G1 X12.738 Y207.653 E11.03657
G1 X12.113 Y206.953 E11.06778
G1 X11.55 Y206.203 E11.09897
G1 X11.053 Y205.408 E11.13016
G1 X10.626 Y204.573 E11.16135
G1 X10.271 Y203.705 E11.19254
G1 X9.992 Y202.81 E11.22372
G1 X9.789 Y201.894 E11.25493
G1 X9.666 Y200.964 E11.28613
G1 X9.622 Y200.027 E11.31733
G1 X9.658 Y199.09 E11.34852
G1 X9.774 Y198.159 E11.37972
G1 X9.969 Y197.242 E11.4109
G1 X10.241 Y196.344 E11.44211
G1 X10.588 Y195.473 E11.47329
G1 X11.009 Y194.635 E11.50449
G1 X11.499 Y193.836 E11.53566
G1 X12.056 Y193.081 E11.56687
G1 X12.641 Y192.412 E11.59642
G1 X12.825 Y192.218 E11.60532
G1 X13.028 Y192.01 E11.61498
G1 X185.308 Y19.727 E19.71858
G0 F6000 X185.587 Y20.014
G1 F1200 X186.097 Y19.517 E19.74226
G1 X186.784 Y18.903 E19.77291
G1 X187.521 Y18.352 E19.80351
G1 X188.303 Y17.866 E19.83414
G1 X189.125 Y17.451 E19.86476
G1 X189.979 Y17.108 E19.89537
G1 X190.86 Y16.841 E19.92599
G1 X191.761 Y16.651 E19.95662
G1 X192.675 Y16.54 E19.98724
G1 X193.595 Y16.508 E20.01786
G1 X194.514 Y16.557 E20.04847
G1 X195.426 Y16.685 E20.0791
G1 X196.323 Y16.892 E20.10972
G1 X197.199 Y17.176 E20.14035
G1 X198.047 Y17.535 E20.17097
G1 X198.86 Y17.966 E20.20158
G1 X199.633 Y18.466 E20.2322
G1 X200.36 Y19.031 E20.26282
G1 X200.758 Y19.387 E20.28058
G1 X200.994 Y19.609 E20.29136
G1 X201.226 Y19.835 E20.30213
G1 X212.002 Y30.611 E20.809
G1 X212.47 Y31.091 E20.8313
G1 X213.083 Y31.778 E20.86192
G1 X213.635 Y32.515 E20.89255
G1 X214.12 Y33.297 E20.92315
G1 X214.536 Y34.118 E20.95377
G1 X214.879 Y34.973 E20.98441
G1 X215.147 Y35.854 E21.01503
G1 X215.337 Y36.754 E21.04563
G1 X215.448 Y37.668 E21.07625
G1 X215.48 Y38.588 E21.10687
G1 X215.431 Y39.508 E21.13751
G1 X215.303 Y40.42 E21.16814
G1 X215.096 Y41.317 E21.19876
G1 X214.813 Y42.193 E21.22938
G1 X214.454 Y43.04 E21.25998
G1 X214.023 Y43.854 E21.29061
G1 X213.523 Y44.627 E21.32123
G1 X212.958 Y45.354 E21.35186
G1 X212.613 Y45.741 E21.3691
G1 X212.403 Y45.965 E21.37931
G1 X212.165 Y46.21 E21.39067
G1 X201.969 Y56.406 E21.87026
G1 X200.138 Y58.29 E21.95764
G1 X198.432 Y60.148 E22.04154
G1 X196.767 Y62.068 E22.12606
G1 X195.159 Y64.028 E22.21038
G1 X193.631 Y66.004 E22.29346
G1 X192.132 Y68.064 E22.3782
G1 X190.692 Y70.161 E22.46281
G1 X189.331 Y72.268 E22.54624
G1 X188.022 Y74.428 E22.63024
G1 X186.757 Y76.654 E22.7154
G1 X185.58 Y78.868 E22.79879
G1 X184.465 Y81.118 E22.88231
G1 X183.634 Y82.921 E22.94835
G1 X183.073 Y84.152 E22.99334
G1 X182.655 Y84.973 E23.02398
G1 X182.167 Y85.753 E23.05458
G1 X181.614 Y86.489 E23.0852
G1 X181.043 Y87.129 E23.11373
G1 X180.675 Y87.509 E23.13132
G1 X180.442 Y87.742 E23.14228
G1 X179.77 Y88.394 E23.17343
G1 X177.695 Y90.475 E23.27117
G1 X177.341 Y90.842 E23.28813
G1 X177.093 Y91.091 E23.29982
G1 X176.419 Y91.746 E23.33108
G1 X174.386 Y93.784 E23.42682
G1 X174.009 Y94.174 E23.44486
G1 X173.77 Y94.413 E23.4561
G1 X173.146 Y95.019 E23.48503
G1 X170.985 Y97.185 E23.5868
G1 X170.659 Y97.522 E23.60239
G1 X170.429 Y97.753 E23.61323
G1 X169.82 Y98.345 E23.64148
G1 X167.685 Y100.485 E23.74202
G1 X167.325 Y100.857 E23.75924
G1 X167.098 Y101.084 E23.76992
G1 X166.473 Y101.692 E23.79892
G1 X164.392 Y103.778 E23.89692
G1 X164.015 Y104.168 E23.91496
G1 X163.778 Y104.405 E23.92611
G1 X163.119 Y105.045 E23.95667
G1 X161.056 Y107.115 E24.05387
G1 X160.71 Y107.473 E24.07043
G1 X160.471 Y107.713 E24.08169
G1 X159.781 Y108.383 E24.11368
G1 X157.726 Y110.444 E24.21048
G1 X157.329 Y110.855 E24.22949
G1 X157.09 Y111.094 E24.24073
G1 X156.453 Y111.713 E24.27027
G1 X154.341 Y113.83 E24.36973
G1 X154.049 Y114.133 E24.38373
G1 X153.822 Y114.361 E24.39443
G1 X153.069 Y115.094 E24.42938
G1 X151 Y117.172 E24.52691
G1 X150.701 Y117.482 E24.54124
G1 X150.45 Y117.734 E24.55307
G1 X149.815 Y118.35 E24.58249
G1 X147.66 Y120.51 E24.68397
G1 X147.334 Y120.847 E24.69957
G1 X147.104 Y121.078 E24.71041
G1 X146.495 Y121.67 E24.73866
G1 X144.346 Y123.824 E24.83986
G1 X144.016 Y124.166 E24.85567
G1 X143.771 Y124.412 E24.86721
G1 X143.123 Y125.041 E24.89725
G1 X141.063 Y127.108 E24.99431
G1 X140.717 Y127.466 E25.01087
G1 X140.478 Y127.706 E25.02214
G1 X139.788 Y128.376 E25.05412
G1 X137.699 Y130.471 E25.15253
G1 X137.354 Y130.828 E25.16904
G1 X137.116 Y131.067 E25.18026
G1 X136.457 Y131.707 E25.21081
G1 X134.377 Y133.793 E25.30879
G1 X134.023 Y134.16 E25.32575
G1 X133.775 Y134.409 E25.33744
G1 X133.101 Y135.064 E25.3687
G1 X131.068 Y137.102 E25.46444
G1 X130.691 Y137.492 E25.48248
G1 X130.452 Y137.731 E25.49372
G1 X129.828 Y138.337 E25.52265
G1 X127.667 Y140.503 E25.62442
G1 X127.341 Y140.84 E25.64001
G1 X127.111 Y141.071 E25.65086
G1 X126.502 Y141.663 E25.6791
G1 X124.335 Y143.835 E25.78115
G1 X124.009 Y144.172 E25.79675
G1 X123.779 Y144.403 E25.80759
G1 X123.17 Y144.995 E25.83584
G1 X121.021 Y147.149 E25.93704
G1 X120.691 Y147.491 E25.95284
G1 X120.446 Y147.737 E25.96439
G1 X119.798 Y148.366 E25.99443
G1 X117.738 Y150.433 E26.09149
G1 X117.392 Y150.791 E26.10805
G1 X117.153 Y151.031 E26.11931
G1 X116.463 Y151.701 E26.1513
G1 X114.374 Y153.796 E26.2497
G1 X114.029 Y154.153 E26.26621
G1 X113.791 Y154.392 E26.27743
G1 X113.132 Y155.032 E26.30799
G1 X111.052 Y157.118 E26.40596
G1 X110.698 Y157.485 E26.42292
G1 X110.45 Y157.734 E26.43461
G1 X109.776 Y158.389 E26.46587
G1 X107.743 Y160.427 E26.56162
G1 X107.366 Y160.817 E26.57966
G1 X107.127 Y161.056 E26.5909
G1 X106.503 Y161.662 E26.61983
G1 X104.342 Y163.828 E26.72159
G1 X104.016 Y164.165 E26.73719
G1 X103.786 Y164.396 E26.74803
G1 X103.177 Y164.988 E26.77628
G1 X101.016 Y167.154 E26.87804
G1 X100.698 Y167.483 E26.89326
G1 X100.464 Y167.718 E26.90429
G1 X99.829 Y168.335 E26.93374
G1 X97.678 Y170.493 E27.03508
G1 X97.373 Y170.809 E27.04969
G1 X97.131 Y171.052 E27.0611
G1 X96.476 Y171.689 E27.09149
G1 X94.413 Y173.758 E27.18866
G1 X94.067 Y174.116 E27.20522
G1 X93.828 Y174.356 E27.21649
G1 X93.138 Y175.026 E27.24848
G1 X91.059 Y177.111 E27.34641
G1 X90.705 Y177.478 E27.36337
G1 X90.457 Y177.727 E27.37506
G1 X89.783 Y178.382 E27.40632
G1 X87.75 Y180.42 E27.50206
G1 X87.373 Y180.81 E27.5201
G1 X87.134 Y181.049 E27.53134
G1 X86.51 Y181.655 E27.56027
G1 X84.349 Y183.821 E27.66204
G1 X84.023 Y184.158 E27.67763
G1 X83.793 Y184.389 E27.68847
G1 X83.184 Y184.981 E27.71672
G1 X81.017 Y187.153 E27.81877
G1 X80.691 Y187.49 E27.83436
G1 X80.461 Y187.721 E27.84521
G1 X79.852 Y188.313 E27.87346
G1 X77.703 Y190.467 E27.97466
G1 X77.373 Y190.809 E27.99046
G1 X77.128 Y191.055 E28.00201
G1 X76.48 Y191.684 E28.03205
G1 X74.42 Y193.751 E28.12911
G1 X74.074 Y194.109 E28.14567
G1 X73.835 Y194.349 E28.15693
G1 X73.145 Y195.019 E28.18892
G1 X71.056 Y197.114 E28.28732
G1 X70.711 Y197.471 E28.30383
G1 X70.473 Y197.71 E28.31505
G1 X69.814 Y198.35 E28.34561
G1 X67.734 Y200.436 E28.44358
G1 X67.38 Y200.803 E28.46054
G1 X67.132 Y201.052 E28.47223
G1 X66.458 Y201.707 E28.50349
G1 X64.425 Y203.745 E28.59924
G1 X64.048 Y204.135 E28.61728
G1 X63.809 Y204.374 E28.62852
G1 X63.185 Y204.98 E28.65745
G1 X61.024 Y207.146 E28.75921
G1 X60.698 Y207.483 E28.77481
G1 X60.468 Y207.714 E28.78565
G1 X59.859 Y208.306 E28.8139
G1 X57.724 Y210.446 E28.91444
G1 X57.364 Y210.818 E28.93166
G1 X57.137 Y211.045 E28.94234
G1 X56.512 Y211.653 E28.97134
G1 X54.419 Y213.751 E29.0699
G1 X54.048 Y214.134 E29.08764
G1 X53.809 Y214.373 E29.09888
G1 X53.584 Y214.591 E29.1093
G1 X52.896 Y215.202 E29.1399
G1 X52.157 Y215.751 E29.17052
G1 X51.373 Y216.234 E29.20115
G1 X50.55 Y216.648 E29.23179
G1 X49.695 Y216.988 E29.2624
G1 X48.657 Y217.291 E29.29836
G1 X47.913 Y217.468 E29.3238
