;FLAVOR:Marlin
;TIME:3549
;Filament used: 1.52968m
;Layer height: 0.2
;MINX:53.786
;MINY:85.569
;MINZ:0.2
;MAXX:149.314
;MAXY:177.461
;MAXZ:5
;Generated with Cura_SteamEngine 4.9.0
M140 S50
M105
M190 S50
M104 S200
M105
M109 S200
M82 ;absolute extrusion mode
; Ender 3 Custom Start G-code
G92 E0 ; Reset Extruder
G28 ; Home all axes
G1 Z2.0 F3000 ; Move Z Axis up little to prevent scratching of Heat Bed
G1 X0.1 Y20 Z0.3 F5000.0 ; Move to start position
G1 X0.1 Y200.0 Z0.3 F1500.0 E15 ; Draw the first line
G1 X0.4 Y200.0 Z0.3 F5000.0 ; Move to side a little
G1 X0.4 Y20 Z0.3 F1500.0 E30 ; Draw the second line
G92 E0 ; Reset Extruder
G1 Z2.0 F3000 ; Move Z Axis up little to prevent scratching of Heat Bed
G1 X5 Y20 Z0.3 F5000.0 ; Move over to prevent blob squish
G92 E0
G92 E0
G1 F2700 E-5
;LAYER_COUNT:25
;LAYER:0
M107
G0 F6000 X96.05 Y93.892 Z0.2
;TYPE:SKIRT
G1 F2700 E0
G1 F1200 X96.275 Y93.687 E0.01012
G1 X96.521 Y93.469 E0.02106
G1 X96.739 Y93.282 E0.03061
G1 X97.713 Y92.536 E0.07141
G1 X98.94 Y91.702 E0.12076
G1 X99.143 Y91.566 E0.12889
G1 X100.019 Y90.943 E0.16464
G1 X100.298 Y90.762 E0.1757
G1 X101.242 Y90.1 E0.21405
G1 X102.276 Y89.457 E0.25455
G1 X102.539 Y89.313 E0.26452
G1 X102.888 Y89.13 E0.27763
G1 X103.155 Y88.996 E0.28756
G1 X104.253 Y88.517 E0.32741
G1 X105.569 Y88.029 E0.37409
G1 X105.655 Y87.998 E0.37713
G1 X106.944 Y87.499 E0.4231
G1 X107.139 Y87.433 E0.42995
G1 X108.247 Y87.002 E0.46949
G1 X109.422 Y86.62 E0.51059
G1 X109.755 Y86.532 E0.52204
G1 X110.095 Y86.448 E0.53369
G1 X110.351 Y86.389 E0.54243
G1 X111.562 Y86.18 E0.5833
G1 X113.065 Y86.008 E0.63362
G1 X113.23 Y85.991 E0.63913
G1 X114.379 Y85.836 E0.6777
G1 X114.738 Y85.803 E0.68969
G1 X115.825 Y85.663 E0.72614
G1 X117.067 Y85.574 E0.76756
G1 X117.407 Y85.569 E0.77886
G1 X117.77 Y85.57 E0.79094
G1 X118.043 Y85.575 E0.80002
G1 X119.231 Y85.661 E0.83964
G1 X120.105 Y85.772 E0.86894
G1 X120.21 Y85.777 E0.87244
G1 X120.691 Y85.831 E0.88853
G1 X122.215 Y86.035 E0.93967
G1 X123.445 Y86.172 E0.98084
G1 X124.741 Y86.396 E1.02458
G1 X125.111 Y86.483 E1.03722
G1 X125.419 Y86.56 E1.04778
G1 X125.656 Y86.623 E1.05594
G1 X126.795 Y86.993 E1.09577
G1 X127.768 Y87.369 E1.13047
G1 X128.035 Y87.476 E1.14003
G1 X129.715 Y88.113 E1.19979
G1 X130.773 Y88.503 E1.2373
G1 X131.922 Y89.003 E1.27897
G1 X132.249 Y89.168 E1.29116
G1 X132.555 Y89.329 E1.30266
G1 X132.779 Y89.451 E1.31114
G1 X133.821 Y90.096 E1.3519
G1 X135.058 Y90.962 E1.40212
G1 X135.271 Y91.114 E1.41082
G1 X136.106 Y91.674 E1.44426
G1 X136.297 Y91.814 E1.45214
G1 X137.381 Y92.555 E1.49581
G1 X138.344 Y93.294 E1.53619
G1 X138.543 Y93.465 E1.54491
G1 X138.765 Y93.661 E1.55476
G1 X139.002 Y93.876 E1.56541
G1 X139.883 Y94.772 E1.6072
G1 X140.828 Y95.852 E1.65493
G1 X141.046 Y96.108 E1.66611
G1 X141.741 Y96.869 E1.70039
G1 X141.932 Y97.097 E1.71029
G1 X142.737 Y97.993 E1.75035
G1 X143.522 Y98.974 E1.79214
G1 X143.706 Y99.233 E1.8027
G1 X143.892 Y99.502 E1.81358
G1 X144.046 Y99.733 E1.82281
G1 X144.666 Y100.786 E1.86346
G1 X145.255 Y101.929 E1.90622
G1 X145.295 Y102.01 E1.90923
G1 X146.069 Y103.483 E1.96457
G1 X146.645 Y104.556 E2.00508
G1 X147.167 Y105.675 E2.04615
G1 X147.313 Y106.04 E2.05922
G1 X147.441 Y106.374 E2.07112
G1 X147.515 Y106.578 E2.07834
G1 X147.871 Y107.764 E2.11952
G1 X148.181 Y109.063 E2.16394
G1 X148.225 Y109.257 E2.17056
G1 X148.554 Y110.553 E2.21503
G1 X148.588 Y110.714 E2.2205
G1 X148.899 Y111.939 E2.26254
G1 X149.136 Y113.155 E2.30374
G1 X149.18 Y113.476 E2.31452
G1 X149.223 Y113.833 E2.32648
G1 X149.252 Y114.112 E2.33581
G1 X149.311 Y115.324 E2.37617
G1 X149.3 Y116.769 E2.42423
G1 X149.297 Y116.918 E2.42919
G1 X149.314 Y118.114 E2.46897
G1 X149.303 Y118.511 E2.48218
G1 X149.311 Y119.6 E2.5184
G1 X149.247 Y120.865 E2.56053
G1 X149.213 Y121.18 E2.57107
G1 X149.173 Y121.507 E2.58202
G1 X149.134 Y121.789 E2.59149
G1 X148.901 Y122.984 E2.63199
G1 X148.593 Y124.194 E2.67351
G1 X148.571 Y124.274 E2.67627
G1 X148.2 Y125.813 E2.72893
G1 X148.17 Y125.918 E2.73256
G1 X147.875 Y127.15 E2.77469
G1 X147.511 Y128.36 E2.81672
G1 X147.399 Y128.667 E2.82759
G1 X147.289 Y128.954 E2.83781
G1 X147.189 Y129.206 E2.84683
G1 X146.668 Y130.331 E2.88807
G1 X145.829 Y131.9 E2.94724
G1 X145.321 Y132.884 E2.98407
G1 X145.259 Y132.992 E2.98822
G1 X144.671 Y134.133 E3.03091
G1 X144.047 Y135.195 E3.07188
G1 X143.875 Y135.453 E3.08219
G1 X143.676 Y135.741 E3.09383
G1 X143.509 Y135.975 E3.1034
G1 X142.751 Y136.922 E3.14374
G1 X141.968 Y137.795 E3.18274
G1 X141.757 Y138.025 E3.19313
G1 X140.834 Y139.08 E3.23975
G1 X140.686 Y139.235 E3.24688
G1 X139.922 Y140.113 E3.28559
G1 X139.045 Y141.012 E3.32736
G1 X138.744 Y141.287 E3.34092
G1 X138.4 Y141.588 E3.35612
G1 X138.231 Y141.73 E3.36346
G1 X137.325 Y142.415 E3.40124
G1 X136.146 Y143.214 E3.44861
G1 X134.982 Y144.029 E3.49587
G1 X134.857 Y144.109 E3.50081
G1 X133.821 Y144.835 E3.54288
G1 X133.421 Y145.102 E3.55888
G1 X131.163 Y146.541 E3.64794
G1 X129.072 Y147.961 E3.732
G1 X127.043 Y149.423 E3.81518
G1 X125.017 Y150.972 E3.90001
G1 X123.066 Y152.552 E3.98351
G1 X121.185 Y154.168 E4.06599
G1 X119.287 Y155.892 E4.15127
G1 X117.503 Y157.609 E4.23362
G1 X115.714 Y159.43 E4.31853
G1 X114.014 Y161.261 E4.40163
G1 X112.365 Y163.142 E4.48483
G1 X111.855 Y163.759 E4.51145
G1 X110.971 Y164.802 E4.55693
G1 X110.765 Y165.039 E4.56737
G1 X109.843 Y166.066 E4.61327
G1 X109.665 Y166.26 E4.62203
G1 X108.805 Y167.234 E4.66525
G1 X107.944 Y168.223 E4.70886
G1 X107.077 Y169.112 E4.75016
G1 X106.805 Y169.361 E4.76243
G1 X106.482 Y169.644 E4.77671
G1 X106.3 Y169.798 E4.78464
G1 X105.389 Y170.491 E4.82271
G1 X104.01 Y171.429 E4.87818
G1 X103.085 Y172.086 E4.91592
G1 X102.76 Y172.297 E4.92881
G1 X101.843 Y172.939 E4.96604
G1 X100.766 Y173.604 E5.00814
G1 X100.496 Y173.75 E5.01835
G1 X100.245 Y173.882 E5.02778
G1 X99.991 Y174.011 E5.03725
G1 X98.849 Y174.511 E5.07872
G1 X97.515 Y175.007 E5.12605
G1 X97.428 Y175.038 E5.12913
G1 X96.155 Y175.531 E5.17453
G1 X95.96 Y175.597 E5.18138
G1 X94.852 Y176.028 E5.22092
G1 X93.677 Y176.41 E5.26201
G1 X93.344 Y176.498 E5.27347
G1 X93.004 Y176.582 E5.28512
G1 X92.748 Y176.641 E5.29386
G1 X91.537 Y176.85 E5.33473
G1 X90.034 Y177.022 E5.38505
G1 X89.869 Y177.039 E5.39056
G1 X88.72 Y177.194 E5.42912
G1 X88.361 Y177.227 E5.44111
G1 X87.274 Y177.367 E5.47757
G1 X86.032 Y177.456 E5.51898
G1 X85.692 Y177.461 E5.53029
G1 X85.329 Y177.46 E5.54237
G1 X85.055 Y177.455 E5.55148
G1 X83.867 Y177.369 E5.5911
G1 X82.994 Y177.258 E5.62037
G1 X82.889 Y177.253 E5.62386
G1 X82.408 Y177.199 E5.63996
G1 X80.884 Y176.995 E5.6911
G1 X79.654 Y176.858 E5.73226
G1 X78.358 Y176.634 E5.77601
G1 X77.988 Y176.547 E5.78865
G1 X77.68 Y176.47 E5.79921
G1 X77.443 Y176.407 E5.80737
G1 X76.302 Y176.036 E5.84727
G1 X75.168 Y175.596 E5.88773
G1 X75.079 Y175.56 E5.89092
G1 X72.228 Y174.489 E5.99222
G1 X71.125 Y174.004 E6.03229
G1 X70.908 Y173.894 E6.04038
G1 X70.619 Y173.742 E6.05124
G1 X70.318 Y173.578 E6.06265
G1 X69.282 Y172.937 E6.10317
G1 X68.393 Y172.316 E6.13923
G1 X68.154 Y172.144 E6.14903
G1 X66.887 Y171.28 E6.20003
G1 X66.729 Y171.162 E6.20659
G1 X65.775 Y170.515 E6.24493
G1 X64.777 Y169.752 E6.28671
G1 X64.484 Y169.5 E6.29957
G1 X64.241 Y169.284 E6.31038
G1 X64.069 Y169.127 E6.31813
G1 X63.193 Y168.231 E6.3598
G1 X62.27 Y167.172 E6.40653
G1 X62.196 Y167.095 E6.41008
G1 X61.902 Y166.752 E6.42511
G1 X61.331 Y166.125 E6.45331
G1 X61.174 Y165.937 E6.46146
G1 X60.347 Y165.016 E6.50263
G1 X59.556 Y164.025 E6.5448
G1 X59.415 Y163.826 E6.55291
G1 X59.247 Y163.583 E6.56274
G1 X59.049 Y163.287 E6.57458
G1 X58.425 Y162.232 E6.61535
G1 X57.819 Y161.06 E6.65923
G1 X57.647 Y160.718 E6.67197
G1 X57.121 Y159.75 E6.70861
G1 X56.964 Y159.428 E6.72052
G1 X56.432 Y158.431 E6.75811
G1 X55.906 Y157.294 E6.79978
G1 X55.786 Y156.99 E6.81065
G1 X55.674 Y156.694 E6.82117
G1 X55.581 Y156.437 E6.83026
G1 X55.225 Y155.244 E6.87167
G1 X54.938 Y154.039 E6.91287
G1 X54.9 Y153.918 E6.91709
G1 X54.434 Y152.011 E6.98238
G1 X54.203 Y151.104 E7.01351
G1 X53.961 Y149.858 E7.05573
G1 X53.915 Y149.516 E7.06721
G1 X53.879 Y149.215 E7.07729
G1 X53.851 Y148.952 E7.08609
G1 X53.789 Y147.701 E7.12775
G1 X53.803 Y146.047 E7.18276
G1 X53.786 Y144.927 E7.22002
G1 X53.796 Y144.58 E7.23156
G1 X53.789 Y143.394 E7.27101
G1 X53.851 Y142.168 E7.31184
G1 X53.879 Y141.905 E7.32064
G1 X53.912 Y141.63 E7.32985
G1 X53.954 Y141.312 E7.34052
G1 X54.192 Y140.065 E7.38274
G1 X54.527 Y138.739 E7.42823
G1 X54.629 Y138.357 E7.44138
G1 X54.87 Y137.315 E7.47695
G1 X54.96 Y136.991 E7.48814
G1 X55.224 Y135.883 E7.52602
G1 X55.572 Y134.715 E7.56655
G1 X55.673 Y134.434 E7.57649
G1 X55.822 Y134.045 E7.59034
G1 X55.936 Y133.762 E7.60049
G1 X56.431 Y132.7 E7.63946
G1 X57.109 Y131.429 E7.68737
G1 X57.214 Y131.237 E7.69465
G1 X57.746 Y130.189 E7.73374
G1 X57.911 Y129.896 E7.74492
G1 X58.427 Y128.897 E7.78232
G1 X59.036 Y127.862 E7.82226
G1 X59.208 Y127.603 E7.8326
G1 X59.427 Y127.284 E7.84547
G1 X59.601 Y127.041 E7.85541
G1 X60.366 Y126.089 E7.89603
G1 X61.162 Y125.204 E7.93562
G1 X61.362 Y124.987 E7.94544
G1 X62.235 Y123.976 E7.98987
G1 X62.45 Y123.748 E8.00029
G1 X63.216 Y122.873 E8.03897
G1 X64.081 Y121.991 E8.08006
G1 X64.306 Y121.786 E8.09018
G1 X64.552 Y121.568 E8.10111
G1 X64.77 Y121.381 E8.11067
G1 X65.744 Y120.635 E8.15147
G1 X66.971 Y119.801 E8.20082
G1 X67.174 Y119.665 E8.20894
G1 X68.05 Y119.042 E8.2447
G1 X68.32 Y118.867 E8.2554
G1 X69.269 Y118.201 E8.29396
G1 X69.673 Y117.931 E8.31012
G1 X71.954 Y116.476 E8.40011
G1 X74.032 Y115.067 E8.48361
G1 X76.069 Y113.598 E8.56714
G1 X78.077 Y112.062 E8.65123
G1 X80.041 Y110.472 E8.73528
G1 X81.934 Y108.845 E8.8183
G1 X83.821 Y107.13 E8.90311
G1 X85.605 Y105.413 E8.98546
G1 X87.394 Y103.592 E9.07037
G1 X89.107 Y101.748 E9.15408
G1 X90.746 Y99.876 E9.23683
G1 X91.482 Y98.989 E9.27517
G1 X92.131 Y98.224 E9.30853
G1 X92.354 Y97.969 E9.3198
G1 X93.218 Y97.012 E9.36268
G1 X94.207 Y95.868 E9.41298
G1 X94.482 Y95.576 E9.42632
G1 X95.185 Y94.774 E9.46179
G1 X96.05 Y93.892 E9.50288
G0 F6000 X96.319 Y94.188
G1 F1200 X96.544 Y93.983 E9.51301
G1 X96.782 Y93.772 E9.52359
G1 X97 Y93.585 E9.53314
G1 X97.938 Y92.867 E9.57243
G1 X99.163 Y92.034 E9.6217
G1 X99.376 Y91.891 E9.63023
G1 X100.251 Y91.269 E9.66594
G1 X100.52 Y91.095 E9.67659
G1 X101.472 Y90.427 E9.71527
G1 X102.468 Y89.807 E9.7543
G1 X102.731 Y89.663 E9.76427
G1 X103.067 Y89.487 E9.77688
G1 X103.334 Y89.353 E9.78682
G1 X104.393 Y88.892 E9.82523
G1 X105.573 Y88.453 E9.86711
G1 X105.773 Y88.381 E9.87418
G1 X107.088 Y87.872 E9.92108
G1 X107.284 Y87.806 E9.92796
G1 X108.392 Y87.375 E9.9675
G1 X109.524 Y87.007 E10.00709
G1 X109.857 Y86.919 E10.01855
G1 X110.184 Y86.838 E10.02975
G1 X110.44 Y86.779 E10.03849
G1 X111.608 Y86.578 E10.07791
G1 X113.105 Y86.406 E10.12803
G1 X113.263 Y86.39 E10.13331
G1 X114.432 Y86.232 E10.17254
G1 X114.795 Y86.199 E10.18466
G1 X115.876 Y86.06 E10.22092
G1 X117.073 Y85.974 E10.26083
G1 X117.413 Y85.969 E10.27214
G1 X117.763 Y85.97 E10.28378
G1 X118.036 Y85.975 E10.29286
G1 X119.18 Y86.058 E10.33101
G1 X120.276 Y86.198 E10.36776
G1 X120.638 Y86.227 E10.37984
G1 X122.208 Y86.437 E10.43252
G1 X123.401 Y86.57 E10.47245
G1 X124.649 Y86.785 E10.51457
G1 X125.019 Y86.872 E10.52721
G1 X125.316 Y86.947 E10.5374
G1 X125.553 Y87.01 E10.54556
G1 X126.651 Y87.367 E10.58396
G1 X127.784 Y87.806 E10.62437
G1 X127.883 Y87.846 E10.62792
G1 X129.605 Y88.499 E10.68918
G1 X130.634 Y88.879 E10.72566
G1 X131.742 Y89.36 E10.76583
G1 X132.069 Y89.525 E10.77802
G1 X132.364 Y89.68 E10.7891
G1 X132.588 Y89.802 E10.79758
G1 X133.592 Y90.424 E10.83687
G1 X134.825 Y91.287 E10.88692
G1 X135.03 Y91.434 E10.89531
G1 X135.884 Y92.006 E10.9295
G1 X136.071 Y92.144 E10.93723
G1 X137.156 Y92.885 E10.98093
G1 X138.083 Y93.597 E11.01981
G1 X138.282 Y93.768 E11.02853
G1 X138.496 Y93.957 E11.03803
G1 X138.733 Y94.172 E11.04867
G1 X139.582 Y95.036 E11.08896
G1 X140.524 Y96.112 E11.13653
G1 X140.745 Y96.371 E11.14785
G1 X141.445 Y97.138 E11.18239
G1 X141.635 Y97.365 E11.19223
G1 X142.439 Y98.26 E11.23225
G1 X143.196 Y99.206 E11.27255
G1 X143.38 Y99.465 E11.28311
G1 X143.559 Y99.724 E11.29359
G1 X143.713 Y99.955 E11.30282
G1 X144.311 Y100.97 E11.342
G1 X144.897 Y102.107 E11.38455
G1 X144.941 Y102.195 E11.38782
G1 X145.713 Y103.665 E11.44304
G1 X146.293 Y104.745 E11.48382
G1 X146.796 Y105.823 E11.52338
G1 X146.942 Y106.188 E11.53646
G1 X147.065 Y106.51 E11.54792
G1 X147.139 Y106.714 E11.55514
G1 X147.482 Y107.858 E11.59486
G1 X147.791 Y109.151 E11.63908
G1 X147.839 Y109.363 E11.64631
G1 X148.166 Y110.651 E11.69051
G1 X148.2 Y110.816 E11.69611
G1 X148.511 Y112.038 E11.73805
G1 X148.74 Y113.21 E11.77777
G1 X148.784 Y113.531 E11.78854
G1 X148.825 Y113.874 E11.80003
G1 X148.854 Y114.153 E11.80936
G1 X148.911 Y115.321 E11.84826
G1 X148.9 Y116.762 E11.89618
G1 X148.897 Y116.904 E11.90091
G1 X148.914 Y118.119 E11.94132
G1 X148.903 Y118.51 E11.95433
G1 X148.911 Y119.603 E11.99069
G1 X148.85 Y120.823 E12.03132
G1 X148.816 Y121.138 E12.04185
G1 X148.777 Y121.452 E12.05238
G1 X148.738 Y121.734 E12.06185
G1 X148.513 Y122.885 E12.10085
G1 X148.207 Y124.089 E12.14217
G1 X148.182 Y124.18 E12.14531
G1 X147.811 Y125.719 E12.19796
G1 X147.782 Y125.819 E12.20143
G1 X147.486 Y127.057 E12.24376
G1 X147.135 Y128.223 E12.28426
G1 X147.023 Y128.53 E12.29513
G1 X146.918 Y128.807 E12.30499
G1 X146.818 Y129.059 E12.314
G1 X146.315 Y130.143 E12.35375
G1 X145.492 Y131.681 E12.41177
G1 X144.965 Y132.701 E12.44995
G1 X144.913 Y132.792 E12.45344
G1 X144.316 Y133.95 E12.49677
G1 X143.714 Y134.973 E12.53625
G1 X143.542 Y135.231 E12.54656
G1 X143.35 Y135.509 E12.5578
G1 X143.183 Y135.743 E12.56736
G1 X142.453 Y136.655 E12.60622
G1 X141.673 Y137.524 E12.64506
G1 X141.464 Y137.751 E12.65532
G1 X140.533 Y138.816 E12.70237
G1 X140.397 Y138.958 E12.70891
G1 X139.62 Y139.851 E12.74828
G1 X138.775 Y140.717 E12.78852
G1 X138.474 Y140.992 E12.80208
G1 X138.143 Y141.282 E12.81672
G1 X137.974 Y141.424 E12.82406
G1 X137.101 Y142.083 E12.86044
G1 X135.988 Y142.837 E12.90515
G1 X134.753 Y143.702 E12.9553
G1 X134.619 Y143.787 E12.96058
G1 X133.592 Y144.507 E13.0023
G1 X133.206 Y144.765 E13.01774
G1 X130.929 Y146.216 E13.10754
G1 X128.853 Y147.626 E13.19101
G1 X126.795 Y149.109 E13.27538
G1 X124.774 Y150.654 E13.35999
G1 X122.837 Y152.222 E13.44288
G1 X120.901 Y153.885 E13.52776
G1 X119.024 Y155.591 E13.61213
G1 X117.205 Y157.341 E13.69608
G1 X115.419 Y159.159 E13.78084
G1 X113.734 Y160.973 E13.86319
G1 X112.035 Y162.912 E13.94894
G1 X111.461 Y163.606 E13.97889
G1 X110.666 Y164.544 E14.01979
G1 X110.467 Y164.772 E14.02985
G1 X109.547 Y165.796 E14.07564
G1 X109.391 Y165.966 E14.08331
G1 X108.505 Y166.969 E14.12782
G1 X107.642 Y167.96 E14.17153
G1 X106.806 Y168.817 E14.21135
G1 X106.534 Y169.066 E14.22362
G1 X106.224 Y169.339 E14.23735
G1 X106.042 Y169.493 E14.24528
G1 X105.164 Y170.161 E14.28198
G1 X103.898 Y171.022 E14.3329
G1 X103.792 Y171.092 E14.33713
G1 X102.853 Y171.76 E14.37545
G1 X102.543 Y171.961 E14.38774
G1 X101.613 Y172.612 E14.4255
G1 X100.576 Y173.252 E14.46603
G1 X100.306 Y173.398 E14.47624
G1 X100.064 Y173.525 E14.48533
G1 X99.81 Y173.654 E14.4948
G1 X98.71 Y174.136 E14.53475
G1 X97.381 Y174.63 E14.58191
G1 X97.298 Y174.659 E14.58483
G1 X96.011 Y175.158 E14.63074
G1 X95.815 Y175.224 E14.63762
G1 X94.707 Y175.655 E14.67716
G1 X93.575 Y176.023 E14.71675
G1 X93.242 Y176.111 E14.72821
G1 X92.915 Y176.192 E14.73941
G1 X92.659 Y176.251 E14.74815
G1 X91.491 Y176.452 E14.78757
G1 X89.994 Y176.624 E14.83769
G1 X89.836 Y176.64 E14.84297
G1 X88.667 Y176.798 E14.8822
G1 X88.304 Y176.831 E14.89433
G1 X87.223 Y176.97 E14.93058
G1 X86.026 Y177.056 E14.97049
G1 X85.686 Y177.061 E14.9818
