;FLAVOR:Marlin
;TIME:5953
;Filament used: 4.14098m
;Layer height: 0.2
;MINX:8.418
;MINY:15.447
;MINZ:0.2
;MAXX:214.681
;MAXY:221.705
;MAXZ:14
;Generated with Cura_SteamEngine 4.9.0
M140 S50
M105
M190 S50
M104 S200
M105
M109 S200
M82 ;absolute extrusion mode
; Ender 3 Custom Start G-code
G92 E0 ; Reset Extruder
G28 ; Home all axes
G1 Z2.0 F3000 ; Move Z Axis up little to prevent scratching of Heat Bed
G1 X0.1 Y20 Z0.3 F5000.0 ; Move to start position
G1 X0.1 Y200.0 Z0.3 F1500.0 E15 ; Draw the first line
G1 X0.4 Y200.0 Z0.3 F5000.0 ; Move to side a little
G1 X0.4 Y20 Z0.3 F1500.0 E30 ; Draw the second line
G92 E0 ; Reset Extruder
G1 Z2.0 F3000 ; Move Z Axis up little to prevent scratching of Heat Bed
G1 X5 Y20 Z0.3 F5000.0 ; Move over to prevent blob squish
G92 E0
G92 E0
G1 F2700 E-5
;LAYER_COUNT:70
;LAYER:0
M107
G0 F6000 X37.565 Y165.607 Z0.2
;TYPE:SKIRT
G1 F2700 E0
G1 F1200 X184.093 Y19.078 E6.89225
G1 X184.613 Y18.571 E6.91641
G1 X185.312 Y17.945 E6.94762
G1 X186.061 Y17.382 E6.97878
G1 X186.856 Y16.884 E7.00998
G1 X187.69 Y16.456 E7.04116
G1 X188.558 Y16.1 E7.07236
G1 X189.453 Y15.82 E7.10355
G1 X190.369 Y15.616 E7.13477
G1 X191.298 Y15.492 E7.16594
G1 X192.235 Y15.447 E7.19714
G1 X193.172 Y15.482 E7.22833
G1 X194.103 Y15.597 E7.25953
G1 X195.021 Y15.791 E7.29073
G1 X195.919 Y16.062 E7.32193
G1 X196.79 Y16.409 E7.35312
G1 X197.629 Y16.828 E7.38431
G1 X198.429 Y17.318 E7.41551
G1 X199.184 Y17.874 E7.4467
G1 X199.83 Y18.436 E7.47518
G1 X200.067 Y18.659 E7.486
G1 X200.307 Y18.892 E7.49712
G1 X211.1 Y29.686 E8.00482
G1 X211.572 Y30.172 E8.02735
G1 X212.196 Y30.872 E8.05854
G1 X212.758 Y31.623 E8.08974
G1 X213.255 Y32.419 E8.12095
G1 X213.681 Y33.254 E8.15213
G1 X214.035 Y34.123 E8.18334
G1 X214.314 Y35.018 E8.21452
G1 X214.515 Y35.934 E8.24571
G1 X214.638 Y36.864 E8.27691
G1 X214.681 Y37.801 E8.30811
G1 X214.644 Y38.738 E8.3393
G1 X214.527 Y39.668 E8.37047
G1 X214.332 Y40.586 E8.40169
G1 X214.15 Y41.211 E8.42334
G1 X214.089 Y41.401 E8.42998
G1 X213.357 Y43.862 E8.51537
G1 X212.698 Y46.332 E8.6004
G1 X212.126 Y48.743 E8.68281
G1 X211.602 Y51.274 E8.76878
G1 X211.335 Y52.736 E8.81821
G1 X211.265 Y53.091 E8.83025
G1 X211.032 Y53.999 E8.86143
G1 X210.722 Y54.884 E8.89261
G1 X210.338 Y55.74 E8.92382
G1 X209.883 Y56.56 E8.95501
G1 X209.359 Y57.338 E8.98621
G1 X208.772 Y58.069 E9.01739
G1 X208.422 Y58.449 E9.03457
G1 X208.072 Y58.812 E9.05134
G1 X207.816 Y59.068 E9.06338
G1 X207.196 Y59.67 E9.09213
G1 X205.021 Y61.85 E9.19455
G1 X204.708 Y62.175 E9.20956
G1 X204.461 Y62.423 E9.2212
G1 X203.835 Y63.031 E9.25022
G1 X201.689 Y65.182 E9.35128
G1 X201.376 Y65.507 E9.36629
G1 X201.129 Y65.755 E9.37793
G1 X200.503 Y66.363 E9.40696
G1 X198.354 Y68.518 E9.50818
G1 X198.034 Y68.849 E9.52349
G1 X197.792 Y69.092 E9.5349
G1 X197.186 Y69.681 E9.56301
G1 X195.07 Y71.803 E9.66268
G1 X194.733 Y72.152 E9.67881
G1 X194.481 Y72.404 E9.69067
G1 X193.866 Y73.001 E9.71918
G1 X191.693 Y75.179 E9.8215
G1 X191.38 Y75.504 E9.83651
G1 X191.133 Y75.752 E9.84815
G1 X190.507 Y76.36 E9.87718
G1 X188.373 Y78.5 E9.9777
G1 X188.046 Y78.839 E9.99336
G1 X187.789 Y79.096 E10.00545
G1 X187.142 Y79.724 E10.03544
G1 X185.059 Y81.814 E10.13358
G1 X184.744 Y82.14 E10.14866
G1 X184.495 Y82.39 E10.1604
G1 X183.84 Y83.026 E10.19076
G1 X181.696 Y85.175 E10.29173
G1 X181.383 Y85.5 E10.30673
G1 X181.136 Y85.748 E10.31838
G1 X180.51 Y86.356 E10.3474
G1 X178.361 Y88.511 E10.44862
G1 X178.041 Y88.842 E10.46394
G1 X177.799 Y89.085 E10.47534
G1 X177.193 Y89.674 E10.50345
G1 X175.061 Y91.812 E10.60388
G1 X174.73 Y92.154 E10.61971
G1 X174.493 Y92.392 E10.63088
G1 X173.848 Y93.019 E10.66079
G1 X171.7 Y95.173 E10.76197
G1 X171.387 Y95.497 E10.77695
G1 X171.139 Y95.746 E10.78864
G1 X170.514 Y96.353 E10.81762
G1 X168.38 Y98.493 E10.91814
G1 X168.053 Y98.832 E10.93381
G1 X167.796 Y99.089 E10.94589
G1 X167.149 Y99.717 E10.97588
G1 X165.066 Y101.807 E11.07403
G1 X164.751 Y102.133 E11.0891
G1 X164.502 Y102.383 E11.10084
G1 X163.847 Y103.019 E11.1312
G1 X161.703 Y105.168 E11.23217
G1 X161.39 Y105.493 E11.24718
G1 X161.143 Y105.741 E11.25882
G1 X160.517 Y106.349 E11.28784
G1 X158.371 Y108.5 E11.3889
G1 X158.058 Y108.825 E11.40391
G1 X157.811 Y109.073 E11.41555
G1 X157.185 Y109.681 E11.44458
G1 X155.034 Y111.838 E11.54589
G1 X154.712 Y112.171 E11.5613
G1 X154.472 Y112.412 E11.57261
G1 X153.86 Y113.007 E11.601
G1 X151.729 Y115.144 E11.70138
G1 X151.403 Y115.481 E11.71697
G1 X151.163 Y115.722 E11.72829
G1 X150.524 Y116.343 E11.75792
G1 X148.375 Y118.497 E11.85912
G1 X148.062 Y118.822 E11.87413
G1 X147.815 Y119.07 E11.88577
G1 X147.189 Y119.678 E11.9148
G1 X145.071 Y121.802 E12.01456
G1 X144.755 Y122.129 E12.02969
G1 X144.508 Y122.377 E12.04133
G1 X143.854 Y123.012 E12.07165
G1 X141.71 Y125.161 E12.17261
G1 X141.397 Y125.486 E12.18762
G1 X141.15 Y125.734 E12.19926
G1 X140.524 Y126.342 E12.22829
G1 X138.378 Y128.493 E12.32935
G1 X138.065 Y128.818 E12.34435
G1 X137.818 Y129.066 E12.35599
G1 X137.192 Y129.674 E12.38502
G1 X135.043 Y131.829 E12.48624
G1 X134.723 Y132.16 E12.50156
G1 X134.481 Y132.403 E12.51296
G1 X133.875 Y132.992 E12.54107
G1 X131.759 Y135.114 E12.64074
G1 X131.422 Y135.463 E12.65688
G1 X131.17 Y135.715 E12.66873
G1 X130.555 Y136.312 E12.69724
G1 X128.382 Y138.49 E12.79957
G1 X128.069 Y138.815 E12.81457
G1 X127.822 Y139.063 E12.82622
G1 X127.196 Y139.671 E12.85524
G1 X125.062 Y141.811 E12.95576
G1 X124.735 Y142.15 E12.97142
G1 X124.478 Y142.407 E12.98351
G1 X123.831 Y143.035 E13.0135
G1 X121.747 Y145.125 E13.11167
G1 X121.432 Y145.452 E13.12677
G1 X121.183 Y145.702 E13.13851
G1 X120.527 Y146.339 E13.16892
G1 X118.367 Y148.505 E13.27066
G1 X118.061 Y148.821 E13.28529
G1 X117.829 Y149.054 E13.29623
G1 X117.206 Y149.66 E13.32513
G1 X115.048 Y151.824 E13.42678
G1 X114.729 Y152.154 E13.44205
G1 X114.486 Y152.397 E13.45348
G1 X113.927 Y152.94 E13.4794
G1 X111.75 Y155.123 E13.58194
G1 X111.419 Y155.465 E13.59777
G1 X111.182 Y155.703 E13.60894
G1 X110.537 Y156.33 E13.63886
G1 X108.371 Y158.502 E13.74088
G1 X108.065 Y158.818 E13.75551
G1 X107.833 Y159.051 E13.76645
G1 X107.21 Y159.657 E13.79535
G1 X105.052 Y161.821 E13.897
G1 X104.732 Y162.152 E13.91231
G1 X104.49 Y162.395 E13.92372
G1 X103.815 Y163.051 E13.95503
G1 X101.754 Y165.118 E14.05211
G1 X101.439 Y165.445 E14.06721
G1 X101.19 Y165.695 E14.07895
G1 X100.534 Y166.332 E14.10936
G1 X98.374 Y168.498 E14.2111
G1 X98.068 Y168.814 E14.22573
G1 X97.836 Y169.047 E14.23667
G1 X97.213 Y169.653 E14.26557
G1 X95.042 Y171.83 E14.36783
G1 X94.736 Y172.146 E14.38246
G1 X94.504 Y172.379 E14.3934
G1 X93.881 Y172.985 E14.42231
G1 X91.721 Y175.151 E14.52405
G1 X91.4 Y175.483 E14.53941
G1 X91.16 Y175.724 E14.55072
G1 X90.549 Y176.318 E14.57906
G1 X88.417 Y178.456 E14.67949
G1 X88.091 Y178.793 E14.69508
G1 X87.851 Y179.034 E14.70639
G1 X87.211 Y179.656 E14.73608
G1 X85.053 Y181.82 E14.83772
G1 X84.726 Y182.158 E14.85336
G1 X84.488 Y182.397 E14.86458
G1 X83.84 Y183.028 E14.89467
G1 X81.778 Y185.094 E14.99175
G1 X81.431 Y185.453 E15.00836
G1 X81.156 Y185.728 E15.02129
G1 X80.931 Y185.945 E15.03169
G1 X80.25 Y186.55 E15.06199
G1 X79.499 Y187.112 E15.09318
G1 X78.703 Y187.608 E15.12438
G1 X77.875 Y188.032 E15.15532
G1 X77.093 Y188.39 E15.18392
G1 X75.948 Y188.9 E15.22561
G1 X73.634 Y190.008 E15.31095
G1 X71.404 Y191.154 E15.39434
G1 X69.22 Y192.358 E15.47728
G1 X67.027 Y193.649 E15.56192
G1 X64.907 Y194.976 E15.64511
G1 X62.802 Y196.38 E15.72927
G1 X60.762 Y197.826 E15.81243
G1 X58.736 Y199.349 E15.89673
G1 X56.786 Y200.903 E15.97967
G1 X54.838 Y202.549 E16.06449
G1 X53.005 Y204.188 E16.14627
G1 X50.208 Y206.869 E16.27514
G1 X38.973 Y218.103 E16.80357
G1 X38.485 Y218.579 E16.82625
G1 X37.786 Y219.205 E16.85746
G1 X37.037 Y219.769 E16.88864
G1 X36.242 Y220.267 E16.91984
G1 X35.408 Y220.695 E16.95102
G1 X34.54 Y221.051 E16.98222
G1 X33.645 Y221.332 E17.01343
G1 X32.729 Y221.535 E17.04463
G1 X31.8 Y221.66 E17.07581
G1 X30.863 Y221.705 E17.10701
G1 X29.926 Y221.67 E17.1382
G1 X28.995 Y221.555 E17.1694
G1 X28.077 Y221.362 E17.2006
G1 X27.179 Y221.091 E17.23179
G1 X26.308 Y220.744 E17.26298
G1 X25.469 Y220.325 E17.29417
G1 X24.669 Y219.835 E17.32537
G1 X23.914 Y219.28 E17.35654
G1 X23.265 Y218.715 E17.38516
G1 X23.027 Y218.491 E17.39603
G1 X22.788 Y218.259 E17.40711
G1 X12.002 Y207.472 E17.91447
G1 X11.534 Y206.991 E17.93679
G1 X10.909 Y206.291 E17.968
G1 X10.346 Y205.541 E17.9992
G1 X9.849 Y204.746 E18.03038
G1 X9.422 Y203.911 E18.06157
G1 X9.067 Y203.043 E18.09276
G1 X8.788 Y202.148 E18.12394
G1 X8.585 Y201.232 E18.15515
G1 X8.462 Y200.302 E18.18635
G1 X8.418 Y199.365 E18.21755
G1 X8.454 Y198.428 E18.24874
G1 X8.57 Y197.497 E18.27994
G1 X8.765 Y196.58 E18.31112
G1 X9.037 Y195.682 E18.34233
G1 X9.384 Y194.811 E18.37351
G1 X9.805 Y193.973 E18.40471
G1 X10.295 Y193.174 E18.43588
G1 X10.852 Y192.419 E18.46709
G1 X11.458 Y191.728 E18.49765
G1 X11.705 Y191.469 E18.50956
G1 X11.887 Y191.283 E18.51821
G1 X37.565 Y165.607 E19.72598
G0 F6000 X37.848 Y165.889
G1 F1200 X184.372 Y19.364 E26.61804
G1 X184.892 Y18.857 E26.6422
G1 X185.579 Y18.244 E26.67282
G1 X186.316 Y17.692 E26.70345
G1 X187.098 Y17.207 E26.73405
G1 X187.919 Y16.791 E26.76467
G1 X188.774 Y16.448 E26.79531
G1 X189.655 Y16.18 E26.82594
G1 X190.555 Y15.99 E26.85653
G1 X191.469 Y15.879 E26.88715
G1 X192.389 Y15.847 E26.91777
G1 X193.309 Y15.896 E26.94841
G1 X194.221 Y16.024 E26.97904
G1 X195.118 Y16.231 E27.00966
G1 X195.994 Y16.514 E27.04028
G1 X196.841 Y16.873 E27.07088
G1 X197.655 Y17.304 E27.10151
G1 X198.428 Y17.804 E27.13213
G1 X199.155 Y18.369 E27.16276
G1 X199.556 Y18.727 E27.18064
G1 X199.793 Y18.95 E27.19146
G1 X200.024 Y19.175 E27.20218
G1 X210.813 Y29.965 E27.70969
G1 X211.285 Y30.451 E27.73222
G1 X211.897 Y31.139 E27.76285
G1 X212.447 Y31.877 E27.79346
G1 X212.931 Y32.66 E27.82408
G1 X213.346 Y33.482 E27.8547
G1 X213.687 Y34.337 E27.88532
G1 X213.953 Y35.219 E27.91596
G1 X214.141 Y36.12 E27.94657
G1 X214.251 Y37.034 E27.97719
G1 X214.28 Y37.954 E28.00781
G1 X214.23 Y38.873 E28.03842
G1 X214.1 Y39.785 E28.06906
G1 X213.77 Y41.088 E28.11376
G1 X213.692 Y41.33 E28.12222
G1 X212.97 Y43.759 E28.2065
G1 X212.318 Y46.2 E28.29054
G1 X211.731 Y48.675 E28.37514
G1 X211.215 Y51.168 E28.45981
G1 X210.942 Y52.664 E28.51039
G1 X210.874 Y53.008 E28.52206
G1 X210.644 Y53.899 E28.55266
G1 X210.338 Y54.768 E28.58331
G1 X209.958 Y55.606 E28.61391
G1 X209.506 Y56.409 E28.64456
G1 X208.987 Y57.169 E28.67517
G1 X208.134 Y58.171 E28.71893
G1 X207.784 Y58.534 E28.73571
G1 X207.538 Y58.782 E28.74732
G1 X206.812 Y59.487 E28.78098
G1 X204.795 Y61.509 E28.87597
G1 X204.421 Y61.897 E28.8939
G1 X204.182 Y62.136 E28.90514
G1 X203.523 Y62.776 E28.93569
G1 X201.463 Y64.841 E29.03271
G1 X201.089 Y65.229 E29.05063
G1 X200.85 Y65.468 E29.06187
G1 X200.191 Y66.108 E29.09243
G1 X198.096 Y68.208 E29.19109
G1 X197.746 Y68.571 E29.20786
G1 X197.513 Y68.805 E29.21884
G1 X196.907 Y69.394 E29.24695
G1 X194.813 Y71.494 E29.34559
G1 X194.446 Y71.874 E29.36316
G1 X194.203 Y72.117 E29.37459
G1 X193.525 Y72.776 E29.40603
G1 X191.467 Y74.838 E29.50293
G1 X191.093 Y75.226 E29.52085
G1 X190.854 Y75.465 E29.5321
G1 X190.195 Y76.105 E29.56265
G1 X188.143 Y78.163 E29.65931
G1 X187.758 Y78.562 E29.67775
G1 X187.511 Y78.809 E29.68937
G1 X186.833 Y79.467 E29.72079
G1 X184.802 Y81.505 E29.81649
G1 X184.457 Y81.862 E29.833
G1 X184.216 Y82.103 E29.84434
G1 X183.529 Y82.77 E29.87619
G1 X181.47 Y84.834 E29.97315
G1 X181.096 Y85.222 E29.99108
G1 X180.857 Y85.461 E30.00232
G1 X180.198 Y86.101 E30.03287
G1 X178.103 Y88.201 E30.13153
G1 X177.753 Y88.564 E30.1483
G1 X177.52 Y88.798 E30.15929
G1 X176.914 Y89.387 E30.18739
G1 X174.806 Y91.501 E30.28669
G1 X174.443 Y91.876 E30.30405
G1 X174.214 Y92.105 E30.31482
G1 X173.536 Y92.764 E30.34627
G1 X171.442 Y94.864 E30.4449
G1 X171.099 Y95.219 E30.46132
G1 X170.86 Y95.459 E30.47259
G1 X170.202 Y96.098 E30.50309
G1 X168.15 Y98.156 E30.59976
G1 X167.765 Y98.555 E30.6182
G1 X167.518 Y98.802 E30.62982
G1 X166.84 Y99.46 E30.66124
G1 X164.809 Y101.498 E30.75694
G1 X164.464 Y101.855 E30.77345
G1 X164.223 Y102.096 E30.78478
G1 X163.536 Y102.763 E30.81663
G1 X161.477 Y104.827 E30.9136
G1 X161.103 Y105.215 E30.93152
G1 X160.864 Y105.454 E30.94276
G1 X160.205 Y106.094 E30.97332
G1 X158.145 Y108.159 E31.07033
G1 X157.771 Y108.547 E31.08826
G1 X157.532 Y108.786 E31.0995
G1 X156.873 Y109.426 E31.13005
G1 X154.777 Y111.528 E31.22878
G1 X154.424 Y111.893 E31.24567
G1 X154.193 Y112.125 E31.25656
G1 X153.547 Y112.753 E31.28653
G1 X151.505 Y114.801 E31.38272
G1 X151.116 Y115.203 E31.40132
G1 X150.884 Y115.435 E31.41223
G1 X150.212 Y116.088 E31.4434
G1 X148.149 Y118.156 E31.54055
G1 X147.775 Y118.544 E31.55848
G1 X147.536 Y118.783 E31.56972
G1 X146.877 Y119.423 E31.60027
G1 X144.845 Y121.461 E31.69599
G1 X144.468 Y121.851 E31.71404
G1 X144.229 Y122.09 E31.72528
G1 X143.543 Y122.756 E31.75708
G1 X141.484 Y124.82 E31.85404
G1 X141.11 Y125.208 E31.87197
G1 X140.871 Y125.447 E31.88321
G1 X140.212 Y126.087 E31.91376
G1 X138.152 Y128.152 E32.01078
G1 X137.778 Y128.54 E32.0287
G1 X137.539 Y128.779 E32.03994
G1 X136.88 Y129.419 E32.0705
G1 X134.785 Y131.519 E32.16916
G1 X134.435 Y131.882 E32.18593
G1 X134.202 Y132.116 E32.19691
G1 X133.596 Y132.705 E32.22502
G1 X131.502 Y134.805 E32.32366
G1 X131.135 Y135.185 E32.34123
G1 X130.892 Y135.428 E32.35266
G1 X130.214 Y136.087 E32.3841
G1 X128.156 Y138.149 E32.481
G1 X127.782 Y138.537 E32.49892
G1 X127.543 Y138.776 E32.51017
G1 X126.884 Y139.416 E32.54072
G1 X124.832 Y141.474 E32.63738
G1 X124.447 Y141.873 E32.65582
G1 X124.2 Y142.12 E32.66744
G1 X123.522 Y142.778 E32.69887
G1 X121.459 Y144.848 E32.79607
G1 X121.144 Y145.174 E32.81114
G1 X120.904 Y145.415 E32.82246
G1 X120.216 Y146.083 E32.85435
G1 X118.146 Y148.159 E32.95186
G1 X117.774 Y148.543 E32.96964
G1 X117.55 Y148.768 E32.9802
G1 X116.849 Y149.45 E33.01273
G1 X114.791 Y151.514 E33.10967
G1 X114.441 Y151.876 E33.12642
G1 X114.208 Y152.111 E33.13743
G1 X113.57 Y152.731 E33.16702
G1 X111.495 Y154.812 E33.26476
G1 X111.132 Y155.187 E33.28212
G1 X110.903 Y155.416 E33.29289
G1 X110.225 Y156.075 E33.32434
G1 X108.15 Y158.156 E33.42208
G1 X107.778 Y158.54 E33.43986
G1 X107.554 Y158.765 E33.45042
G1 X106.853 Y159.447 E33.48295
G1 X104.794 Y161.511 E33.57992
G1 X104.444 Y161.874 E33.59669
G1 X104.211 Y162.108 E33.60767
G1 X103.535 Y162.765 E33.63903
G1 X101.466 Y164.841 E33.73651
G1 X101.151 Y165.167 E33.75159
G1 X100.911 Y165.408 E33.7629
G1 X100.223 Y166.076 E33.7948
G1 X98.153 Y168.152 E33.8923
G1 X97.781 Y168.536 E33.91008
G1 X97.557 Y168.761 E33.92064
G1 X96.856 Y169.443 E33.95317
G1 X94.821 Y171.484 E34.04904
G1 X94.449 Y171.868 E34.06682
G1 X94.225 Y172.093 E34.07738
G1 X93.524 Y172.775 E34.10991
G1 X91.496 Y174.808 E34.20541
G1 X91.113 Y175.205 E34.22376
G1 X90.881 Y175.438 E34.2347
G1 X90.193 Y176.107 E34.26662
G1 X88.161 Y178.145 E34.36234
G1 X87.803 Y178.515 E34.37946
G1 X87.572 Y178.747 E34.39035
G1 X86.899 Y179.401 E34.42156
G1 X84.797 Y181.509 E34.52057
G1 X84.438 Y181.88 E34.53775
G1 X84.209 Y182.11 E34.54854
G1 X83.594 Y182.708 E34.57707
G1 X81.459 Y184.848 E34.67761
G1 X81.143 Y185.175 E34.69274
G1 X80.878 Y185.44 E34.7052
G1 X80.653 Y185.657 E34.7156
G1 X79.996 Y186.24 E34.74481
G1 X79.259 Y186.791 E34.77542
G1 X78.477 Y187.277 E34.80604
G1 X77.709 Y187.668 E34.83471
G1 X76.931 Y188.025 E34.86318
G1 X75.748 Y188.552 E34.90625
G1 X73.457 Y189.649 E34.99074
G1 X71.234 Y190.792 E35.07387
G1 X69.003 Y192.021 E35.15859
G1 X66.834 Y193.298 E35.24231
G1 X64.679 Y194.647 E35.32687
G1 X62.571 Y196.053 E35.41114
G1 X60.519 Y197.508 E35.49481
G1 X58.509 Y199.019 E35.57845
G1 X56.525 Y200.6 E35.66282
