;FLAVOR:Marlin
;TIME:9799
;Filament used: 6.23814m
;Layer height: 0.2
;MINX:60.249
;MINY:62.704
;MINZ:0.2
;MAXX:174.809
;MAXY:172.365
;MAXZ:6.4
;Generated with Cura_SteamEngine 4.9.0
M140 S70
M105
M190 S70
M104 S240
M105
M109 S240
M82 ;absolute extrusion mode
; Ender 3 Custom Start G-code
G92 E0 ; Reset Extruder
G28 ; Home all axes
G1 Z2.0 F3000 ; Move Z Axis up little to prevent scratching of Heat Bed
G1 X0.1 Y20 Z0.3 F5000.0 ; Move to start position
G1 X0.1 Y200.0 Z0.3 F1500.0 E15 ; Draw the first line
G1 X0.4 Y200.0 Z0.3 F5000.0 ; Move to side a little
G1 X0.4 Y20 Z0.3 F1500.0 E30 ; Draw the second line
G92 E0 ; Reset Extruder
G1 Z2.0 F3000 ; Move Z Axis up little to prevent scratching of Heat Bed
G1 X5 Y20 Z0.3 F5000.0 ; Move over to prevent blob squish
G92 E0
G92 E0
G1 F2700 E-5
;LAYER_COUNT:32
;LAYER:0
M107
G0 F6000 X65.609 Y80.635 Z0.2
;TYPE:SKIRT
G1 F2700 E0
G1 F900 X66.35 Y80.065 E0.03109
G1 X66.744 Y79.788 E0.04711
G1 X67.624 Y79.229 E0.08179
G1 X67.71 Y79.18 E0.08508
G1 X68.206 Y78.915 E0.10378
G1 X68.589 Y78.722 E0.11805
G1 X69.433 Y78.34 E0.14886
G1 X69.602 Y78.272 E0.15492
G1 X70.238 Y78.039 E0.17745
G1 X70.996 Y77.787 E0.20402
G1 X71.397 Y77.662 E0.21799
G1 X120.404 Y63.422 E1.91538
G1 X120.631 Y63.358 E1.92323
G1 X121.263 Y63.189 E1.94499
G1 X122.164 Y62.989 E1.97568
G1 X122.454 Y62.937 E1.98548
G1 X123.424 Y62.807 E2.01803
G1 X124.011 Y62.755 E2.03763
G1 X124.768 Y62.714 E2.06285
G1 X125.342 Y62.705 E2.08194
G1 X159.11 Y62.704 E3.20507
G1 X160.477 Y62.727 E3.25054
G1 X161.438 Y62.786 E3.28257
G1 X161.627 Y62.806 E3.28889
G1 X162.157 Y62.875 E3.30666
G1 X162.363 Y62.907 E3.3136
G1 X162.941 Y63.013 E3.33314
G1 X163.335 Y63.1 E3.34656
G1 X163.531 Y63.147 E3.35327
G1 X164.239 Y63.342 E3.37769
G1 X164.547 Y63.438 E3.38842
G1 X165.359 Y63.727 E3.41709
G1 X165.629 Y63.835 E3.42676
G1 X166.311 Y64.135 E3.45154
G1 X166.494 Y64.223 E3.4583
G1 X167.597 Y64.833 E3.50022
G1 X168.12 Y65.163 E3.52079
G1 X169.114 Y65.87 E3.56136
G1 X169.387 Y66.088 E3.57298
G1 X170.099 Y66.709 E3.6044
G1 X170.139 Y66.747 E3.60623
G1 X170.631 Y67.244 E3.62949
G1 X171.062 Y67.709 E3.65058
G1 X171.845 Y68.656 E3.69145
G1 X171.997 Y68.862 E3.69997
G1 X172.598 Y69.767 E3.7361
G1 X172.833 Y70.166 E3.7515
G1 X172.949 Y70.37 E3.75931
G1 X173.323 Y71.086 E3.78617
G1 X173.409 Y71.267 E3.79284
G1 X173.667 Y71.855 E3.8142
G1 X173.757 Y72.077 E3.82216
G1 X173.97 Y72.648 E3.84243
G1 X174.047 Y72.873 E3.85034
G1 X174.289 Y73.678 E3.8783
G1 X174.347 Y73.902 E3.886
G1 X174.467 Y74.417 E3.90358
G1 X174.513 Y74.638 E3.91109
G1 X174.649 Y75.436 E3.93802
G1 X174.689 Y75.738 E3.94815
G1 X174.756 Y76.394 E3.97008
G1 X174.769 Y76.575 E3.97612
G1 X174.794 Y77.111 E3.99396
G1 X174.806 Y77.635 E4.0114
G1 X174.809 Y77.887 E4.01978
G1 X174.809 Y156.927 E6.64866
G1 X174.794 Y157.891 E6.68073
G1 X174.754 Y158.671 E6.7067
G1 X174.727 Y158.982 E6.71709
G1 X174.637 Y159.724 E6.74195
G1 X174.606 Y159.923 E6.74864
G1 X174.507 Y160.466 E6.767
G1 X174.469 Y160.649 E6.77322
G1 X174.321 Y161.273 E6.79455
G1 X174.265 Y161.481 E6.80171
G1 X174.024 Y162.259 E6.8288
G1 X173.901 Y162.61 E6.84117
G1 X173.572 Y163.44 E6.87087
G1 X173.352 Y163.909 E6.8881
G1 X173.137 Y164.341 E6.90415
G1 X172.73 Y165.085 E6.93235
G1 X172.614 Y165.279 E6.93987
G1 X172.115 Y166.04 E6.97014
G1 X171.966 Y166.248 E6.97865
G1 X171.577 Y166.759 E7.00001
G1 X171.429 Y166.942 E7.00784
G1 X170.949 Y167.497 E7.03224
G1 X170.75 Y167.712 E7.04199
G1 X170.289 Y168.181 E7.06386
G1 X170.144 Y168.32 E7.07054
G1 X169.682 Y168.739 E7.09129
G1 X169.53 Y168.869 E7.09794
G1 X168.968 Y169.318 E7.12186
G1 X168.738 Y169.49 E7.13142
G1 X168.184 Y169.878 E7.15391
G1 X168.027 Y169.981 E7.16016
G1 X167.362 Y170.385 E7.18604
G1 X167.033 Y170.569 E7.19857
G1 X166.032 Y171.063 E7.2357
G1 X165.928 Y171.108 E7.23947
G1 X165.319 Y171.351 E7.26128
G1 X164.769 Y171.551 E7.28074
G1 X163.601 Y171.904 E7.32133
G1 X163.275 Y171.983 E7.33248
G1 X162.045 Y172.207 E7.37407
G1 X161.604 Y172.262 E7.38885
G1 X160.88 Y172.329 E7.41303
G1 X160.345 Y172.35 E7.43084
G1 X159.275 Y172.365 E7.46643
G1 X125.414 Y172.363 E8.59265
G1 X124.88 Y172.355 E8.61041
G1 X124.558 Y172.345 E8.62113
G1 X124.129 Y172.326 E8.63541
G1 X123.257 Y172.253 E8.66452
G1 X123.024 Y172.224 E8.67233
G1 X122.457 Y172.138 E8.6914
G1 X122.249 Y172.101 E8.69843
G1 X121.605 Y171.967 E8.7203
G1 X121.347 Y171.905 E8.72913
G1 X120.967 Y171.806 E8.74219
G1 X120.344 Y171.632 E8.7637
G1 X71.511 Y157.439 E10.45511
G1 X70.773 Y157.214 E10.48077
G1 X70.207 Y157.024 E10.50063
G1 X69.953 Y156.931 E10.50962
G1 X69.555 Y156.777 E10.52382
G1 X69.202 Y156.632 E10.53651
G1 X68.351 Y156.239 E10.56769
G1 X67.852 Y155.966 E10.5866
G1 X67.472 Y155.745 E10.60123
G1 X66.69 Y155.245 E10.6321
G1 X66.386 Y155.032 E10.64444
G1 X65.449 Y154.297 E10.68405
G1 X65.336 Y154.198 E10.68905
G1 X64.798 Y153.693 E10.71359
G1 X64.372 Y153.266 E10.73365
G1 X63.738 Y152.574 E10.76487
G1 X63.443 Y152.208 E10.7805
G1 X63.212 Y151.908 E10.7931
G1 X62.697 Y151.179 E10.82278
G1 X62.581 Y151 E10.82988
G1 X62.246 Y150.449 E10.85132
G1 X62.158 Y150.294 E10.85725
G1 X61.926 Y149.864 E10.8735
G1 X61.828 Y149.672 E10.88067
G1 X61.546 Y149.074 E10.90266
G1 X61.463 Y148.884 E10.90956
G1 X61.183 Y148.179 E10.93479
G1 X61.072 Y147.868 E10.94577
G1 X60.809 Y147.026 E10.97511
G1 X60.727 Y146.721 E10.98562
G1 X60.552 Y145.965 E11.01143
G1 X60.531 Y145.857 E11.01509
G1 X60.426 Y145.213 E11.03679
G1 X60.379 Y144.861 E11.0486
G1 X60.293 Y143.893 E11.08092
G1 X60.266 Y143.285 E11.10116
G1 X60.256 Y142.939 E11.11268
G1 X60.249 Y142.333 E11.13283
G1 X60.252 Y92.469 E12.79132
G1 X60.263 Y91.712 E12.8165
G1 X60.288 Y91.123 E12.83611
G1 X60.302 Y90.918 E12.84294
G1 X60.456 Y89.684 E12.8843
G1 X60.57 Y89.062 E12.90533
G1 X60.769 Y88.181 E12.93537
G1 X60.793 Y88.092 E12.93844
G1 X60.934 Y87.614 E12.95502
G1 X61 Y87.407 E12.96224
G1 X61.486 Y86.153 E13.00697
G1 X61.675 Y85.742 E13.02202
G1 X61.846 Y85.387 E13.03512
G1 X61.97 Y85.141 E13.04429
G1 X62.473 Y84.25 E13.07832
G1 X62.557 Y84.116 E13.08358
G1 X63.068 Y83.37 E13.11365
G1 X63.332 Y83.017 E13.12831
G1 X64.011 Y82.196 E13.16375
G1 X64.237 Y81.948 E13.17491
G1 X64.589 Y81.579 E13.19187
G1 X64.799 Y81.369 E13.20175
G1 X65.51 Y80.718 E13.23381
G1 X65.609 Y80.635 E13.23811
G0 F6000 X65.866 Y80.941
G1 F900 X66.58 Y80.393 E13.26804
G1 X66.974 Y80.116 E13.28406
G1 X67.822 Y79.577 E13.31748
G1 X67.908 Y79.528 E13.32078
G1 X68.386 Y79.272 E13.33881
G1 X68.769 Y79.079 E13.35307
G1 X69.582 Y78.711 E13.38276
G1 X69.751 Y78.643 E13.38882
G1 X70.364 Y78.418 E13.41053
G1 X71.122 Y78.166 E13.4371
G1 X71.508 Y78.046 E13.45055
G1 X120.515 Y63.806 E15.14794
G1 X120.735 Y63.745 E15.15554
G1 X121.367 Y63.576 E15.17729
G1 X122.234 Y63.382 E15.20684
G1 X122.524 Y63.33 E15.21664
G1 X123.46 Y63.205 E15.24805
G1 X124.047 Y63.153 E15.26765
G1 X124.776 Y63.114 E15.29193
G1 X125.342 Y63.105 E15.31076
G1 X159.11 Y63.104 E16.43389
G1 X160.47 Y63.127 E16.47913
G1 X161.395 Y63.184 E16.50995
G1 X161.584 Y63.204 E16.51627
G1 X162.096 Y63.271 E16.53345
G1 X162.302 Y63.303 E16.54038
G1 X162.859 Y63.404 E16.55921
G1 X163.242 Y63.489 E16.57226
G1 X163.438 Y63.536 E16.57896
G1 X164.12 Y63.724 E16.60249
G1 X164.428 Y63.82 E16.61322
G1 X165.211 Y64.098 E16.64086
G1 X165.481 Y64.206 E16.65053
G1 X166.138 Y64.495 E16.6744
G1 X166.321 Y64.583 E16.68116
G1 X167.383 Y65.171 E16.72153
G1 X167.906 Y65.501 E16.7421
G1 X168.864 Y66.183 E16.78121
G1 X169.137 Y66.401 E16.79283
G1 X169.824 Y66.999 E16.82313
G1 X169.864 Y67.037 E16.82496
G1 X170.337 Y67.516 E16.84735
G1 X170.768 Y67.981 E16.86844
G1 X171.523 Y68.893 E16.90782
G1 X171.675 Y69.099 E16.91633
G1 X172.255 Y69.971 E16.95116
G1 X172.485 Y70.363 E16.96628
G1 X172.601 Y70.567 E16.97409
G1 X172.961 Y71.258 E17
G1 X173.047 Y71.439 E17.00667
G1 X173.296 Y72.006 E17.02726
G1 X173.386 Y72.228 E17.03523
G1 X173.592 Y72.778 E17.05476
G1 X173.669 Y73.003 E17.06267
G1 X173.902 Y73.778 E17.08959
G1 X173.96 Y74.002 E17.09729
G1 X174.076 Y74.499 E17.11426
G1 X174.122 Y74.72 E17.12177
G1 X174.252 Y75.488 E17.14768
G1 X174.292 Y75.79 E17.15781
G1 X174.357 Y76.423 E17.17897
G1 X174.37 Y76.604 E17.18501
G1 X174.394 Y77.12 E17.20219
G1 X174.406 Y77.644 E17.21962
G1 X174.409 Y77.887 E17.2277
G1 X174.409 Y156.921 E19.85639
G1 X174.394 Y157.885 E19.88845
G1 X174.355 Y158.637 E19.9135
G1 X174.328 Y158.948 E19.92388
G1 X174.242 Y159.663 E19.94783
G1 X174.211 Y159.862 E19.95453
G1 X174.116 Y160.385 E19.97221
G1 X174.078 Y160.568 E19.97843
G1 X173.935 Y161.169 E19.99898
G1 X173.879 Y161.377 E20.00614
G1 X173.647 Y162.127 E20.03225
G1 X173.524 Y162.478 E20.04462
G1 X173.206 Y163.277 E20.07322
G1 X172.994 Y163.731 E20.08989
G1 X172.779 Y164.163 E20.10594
G1 X172.387 Y164.88 E20.13312
G1 X172.271 Y165.074 E20.14064
G1 X171.79 Y165.807 E20.1698
G1 X171.641 Y166.015 E20.17831
G1 X171.266 Y166.508 E20.19891
G1 X171.118 Y166.691 E20.20674
G1 X170.655 Y167.225 E20.23024
G1 X170.456 Y167.44 E20.23999
G1 X170.012 Y167.892 E20.26106
G1 X169.867 Y168.031 E20.26774
G1 X169.422 Y168.435 E20.28773
G1 X169.27 Y168.565 E20.29438
G1 X168.728 Y168.998 E20.31746
G1 X168.498 Y169.17 E20.32701
G1 X167.965 Y169.544 E20.34867
G1 X167.808 Y169.647 E20.35491
G1 X167.167 Y170.035 E20.37983
G1 X166.838 Y170.219 E20.39237
G1 X165.873 Y170.696 E20.42817
G1 X165.769 Y170.741 E20.43194
G1 X165.182 Y170.975 E20.45296
G1 X164.632 Y171.175 E20.47242
G1 X163.506 Y171.515 E20.51155
G1 X163.18 Y171.594 E20.5227
G1 X161.996 Y171.811 E20.56274
G1 X161.555 Y171.866 E20.57752
G1 X160.856 Y171.929 E20.60086
G1 X160.339 Y171.95 E20.61807
G1 X159.275 Y171.965 E20.65346
G1 X125.42 Y171.963 E21.77949
G1 X124.886 Y171.955 E21.79725
G1 X124.576 Y171.946 E21.80756
G1 X124.147 Y171.927 E21.82185
G1 X123.307 Y171.856 E21.84989
G1 X123.074 Y171.827 E21.85769
G1 X122.527 Y171.744 E21.8761
G1 X122.319 Y171.707 E21.88312
G1 X121.698 Y171.578 E21.90422
G1 X121.44 Y171.516 E21.91304
G1 X121.075 Y171.421 E21.92559
G1 X120.456 Y171.248 E21.94697
G1 X71.482 Y157.013 E23.64326
G1 X70.89 Y156.832 E23.66385
G1 X70.345 Y156.649 E23.68297
G1 X70.091 Y156.556 E23.69197
G1 X69.707 Y156.407 E23.70567
G1 X69.354 Y156.262 E23.71836
G1 X68.519 Y155.876 E23.74896
G1 X68.053 Y155.62 E23.76664
G1 X67.673 Y155.399 E23.78126
G1 X66.919 Y154.917 E23.81103
G1 X66.615 Y154.704 E23.82337
G1 X65.713 Y153.996 E23.86151
G1 X65.6 Y153.897 E23.86651
G1 X65.081 Y153.411 E23.89016
G1 X64.655 Y152.984 E23.91022
G1 X63.76 Y151.964 E23.95535
G1 X63.529 Y151.664 E23.96794
G1 X63.033 Y150.962 E23.99653
G1 X62.917 Y150.783 E24.00363
G1 X62.594 Y150.251 E24.02433
G1 X62.506 Y150.096 E24.03026
G1 X62.283 Y149.682 E24.0459
G1 X62.185 Y149.49 E24.05307
G1 X61.912 Y148.914 E24.07427
G1 X61.829 Y148.724 E24.08116
G1 X61.56 Y148.044 E24.10549
G1 X61.449 Y147.733 E24.11647
G1 X61.196 Y146.922 E24.14472
G1 X61.114 Y146.617 E24.15523
G1 X60.945 Y145.888 E24.18012
G1 X60.924 Y145.78 E24.18378
G1 X60.822 Y145.16 E24.20468
G1 X60.775 Y144.808 E24.21649
G1 X60.692 Y143.875 E24.24764
G1 X60.665 Y143.267 E24.26788
G1 X60.656 Y142.934 E24.27896
G1 X60.649 Y142.333 E24.29895
G1 X60.652 Y92.475 E25.95724
G1 X60.663 Y91.718 E25.98242
G1 X60.687 Y91.15 E26.00133
G1 X60.701 Y90.945 E26.00816
G1 X60.85 Y89.756 E26.04802
G1 X60.964 Y89.134 E26.06905
G1 X61.156 Y88.285 E26.098
G1 X61.18 Y88.196 E26.10107
G1 X61.315 Y87.736 E26.11701
G1 X61.381 Y87.529 E26.12424
G1 X61.849 Y86.32 E26.16736
G1 X62.038 Y85.909 E26.1824
G1 X62.204 Y85.567 E26.19505
G1 X62.328 Y85.321 E26.20421
G1 X62.812 Y84.462 E26.237
G1 X62.896 Y84.328 E26.24226
G1 X63.388 Y83.61 E26.27121
G1 X63.652 Y83.257 E26.28587
G1 X64.306 Y82.465 E26.32004
G1 X64.532 Y82.217 E26.3312
G1 X64.872 Y81.862 E26.34755
G1 X65.082 Y81.652 E26.35742
G1 X65.767 Y81.024 E26.38833
G1 X65.866 Y80.941 E26.39263
G0 F6000 X66.123 Y81.248
G1 F900 X66.81 Y80.72 E26.42145
G1 X67.204 Y80.443 E26.43747
G1 X68.02 Y79.925 E26.46961
G1 X68.106 Y79.876 E26.47291
G1 X68.566 Y79.629 E26.49027
G1 X68.949 Y79.436 E26.50454
G1 X69.732 Y79.082 E26.53312
G1 X69.901 Y79.014 E26.53917
G1 X70.49 Y78.798 E26.56004
G1 X71.248 Y78.546 E26.58661
G1 X71.62 Y78.43 E26.59957
G1 X120.627 Y64.19 E28.29697
G1 X120.838 Y64.131 E28.30425
G1 X121.47 Y63.962 E28.32601
G1 X122.305 Y63.776 E28.35446
G1 X122.595 Y63.724 E28.36426
G1 X123.495 Y63.604 E28.39446
G1 X124.082 Y63.552 E28.41406
G1 X124.784 Y63.514 E28.43745
G1 X125.342 Y63.505 E28.45601
G1 X159.11 Y63.504 E29.57914
G1 X160.463 Y63.527 E29.62414
G1 X161.353 Y63.582 E29.6538
G1 X161.542 Y63.602 E29.66012
G1 X162.035 Y63.666 E29.67666
G1 X162.241 Y63.698 E29.68359
G1 X162.776 Y63.796 E29.70168
G1 X163.148 Y63.878 E29.71435
G1 X163.344 Y63.925 E29.72105
G1 X164.001 Y64.106 E29.74372
G1 X164.309 Y64.202 E29.75445
G1 X165.062 Y64.47 E29.78103
G1 X165.332 Y64.578 E29.79071
G1 X165.964 Y64.856 E29.81367
G1 X166.147 Y64.944 E29.82042
G1 X167.17 Y65.51 E29.85931
G1 X167.693 Y65.84 E29.87988
G1 X168.615 Y66.495 E29.91749
G1 X168.888 Y66.713 E29.92911
G1 X169.548 Y67.289 E29.95825
G1 X169.588 Y67.327 E29.96009
G1 X170.044 Y67.788 E29.98165
G1 X170.475 Y68.253 E30.00274
G1 X171.202 Y69.131 E30.04065
G1 X171.354 Y69.337 E30.04917
G1 X171.911 Y70.176 E30.08266
G1 X172.138 Y70.561 E30.09753
G1 X172.254 Y70.765 E30.10533
G1 X172.6 Y71.43 E30.13027
G1 X172.686 Y71.611 E30.13693
G1 X172.926 Y72.156 E30.15674
G1 X173.016 Y72.378 E30.16471
G1 X173.214 Y72.907 E30.18349
G1 X173.291 Y73.132 E30.1914
G1 X173.514 Y73.878 E30.2173
G1 X173.572 Y74.102 E30.225
G1 X173.684 Y74.58 E30.24132
G1 X173.73 Y74.801 E30.24883
G1 X173.856 Y75.541 E30.2738
G1 X173.896 Y75.843 E30.28393
G1 X173.958 Y76.451 E30.30426
G1 X173.971 Y76.632 E30.31029
G1 X173.994 Y77.129 E30.32684
G1 X174.006 Y77.653 E30.34427
G1 X174.009 Y77.887 E30.35206
G1 X174.009 Y156.915 E32.98054
G1 X173.994 Y157.879 E33.01261
G1 X173.957 Y158.602 E33.03669
G1 X173.93 Y158.913 E33.04707
G1 X173.846 Y159.601 E33.07012
G1 X173.815 Y159.8 E33.07682
G1 X173.724 Y160.304 E33.09385
G1 X173.686 Y160.487 E33.10007
G1 X173.548 Y161.065 E33.11983
G1 X173.492 Y161.273 E33.127
G1 X173.269 Y161.994 E33.1521
G1 X173.146 Y162.345 E33.16447
G1 X172.841 Y163.115 E33.19202
G1 X172.636 Y163.553 E33.2081
G1 X172.421 Y163.985 E33.22415
G1 X172.043 Y164.675 E33.25032
G1 X171.927 Y164.869 E33.25784
G1 X171.465 Y165.574 E33.28587
G1 X171.316 Y165.782 E33.29438
G1 X170.955 Y166.256 E33.3142
G1 X170.807 Y166.439 E33.32203
G1 X170.362 Y166.954 E33.34466
G1 X170.163 Y167.169 E33.35441
G1 X169.736 Y167.603 E33.37466
G1 X169.591 Y167.742 E33.38134
G1 X169.162 Y168.131 E33.4006
G1 X169.01 Y168.261 E33.40725
G1 X168.489 Y168.678 E33.42945
G1 X168.259 Y168.85 E33.439
G1 X167.745 Y169.209 E33.45985
G1 X167.588 Y169.312 E33.4661
G1 X166.972 Y169.686 E33.49007
G1 X166.643 Y169.87 E33.5026
G1 X165.715 Y170.329 E33.53704
G1 X165.611 Y170.374 E33.54081
G1 X165.046 Y170.599 E33.56104
G1 X164.496 Y170.799 E33.5805
G1 X163.412 Y171.126 E33.61816
G1 X163.086 Y171.205 E33.62932
G1 X161.946 Y171.414 E33.66786
G1 X161.505 Y171.469 E33.68265
G1 X160.833 Y171.53 E33.70509
G1 X160.333 Y171.55 E33.72173
G1 X159.275 Y171.565 E33.75692
G1 X125.426 Y171.563 E34.88275
G1 X124.892 Y171.555 E34.90051
G1 X124.594 Y171.546 E34.91043
G1 X124.165 Y171.527 E34.92471
G1 X123.356 Y171.459 E34.95171
G1 X123.123 Y171.43 E34.95952
G1 X122.597 Y171.35 E34.97722
G1 X122.389 Y171.313 E34.98424
G1 X121.792 Y171.189 E35.00452
G1 X121.534 Y171.127 E35.01335
G1 X121.182 Y171.035 E35.02545
G1 X120.567 Y170.864 E35.04668
G1 X71.734 Y156.671 E36.73808
G1 X71.007 Y156.449 E36.76336
G1 X70.482 Y156.273 E36.78178
G1 X70.228 Y156.18 E36.79078
