;FLAVOR:Marlin
;TIME:8332
;Filament used: 4.64655m
;Layer height: 0.2
;MINX:69.547
;MINY:21.5
;MINZ:0.2
;MAXX:164.674
;MAXY:213.5
;MAXZ:4.4
;Generated with Cura_SteamEngine 4.9.0
M140 S50
M105
M190 S50
M104 S200
M105
M109 S200
M82 ;absolute extrusion mode
; Ender 3 Custom Start G-code
G92 E0 ; Reset Extruder
G28 ; Home all axes
G1 Z2.0 F3000 ; Move Z Axis up little to prevent scratching of Heat Bed
G1 X0.1 Y20 Z0.3 F5000.0 ; Move to start position
G1 X0.1 Y200.0 Z0.3 F1500.0 E15 ; Draw the first line
G1 X0.4 Y200.0 Z0.3 F5000.0 ; Move to side a little
G1 X0.4 Y20 Z0.3 F1500.0 E30 ; Draw the second line
G92 E0 ; Reset Extruder
G1 Z2.0 F3000 ; Move Z Axis up little to prevent scratching of Heat Bed
G1 X5 Y20 Z0.3 F5000.0 ; Move over to prevent blob squish
G92 E0
G92 E0
G1 F2700 E-5
;LAYER_COUNT:22
;LAYER:0
M107
G0 F6000 X94.466 Y37.315 Z0.2
;TYPE:SKIRT
G1 F2700 E0
G1 F1200 X94.576 Y37.048 E0.0096
G1 X94.908 Y36.319 E0.03625
G1 X94.987 Y36.161 E0.04212
G1 X95.22 Y35.72 E0.05871
G1 X95.691 Y34.879 E0.09077
G1 X99.154 Y28.885 E0.32101
G1 X99.416 Y28.444 E0.33807
G1 X99.563 Y28.203 E0.34746
G1 X99.709 Y27.971 E0.35658
G1 X100.182 Y27.28 E0.38443
G1 X100.351 Y27.052 E0.39387
G1 X101.035 Y26.218 E0.42975
G1 X101.227 Y26.006 E0.43926
G1 X101.995 Y25.237 E0.47541
G1 X102.218 Y25.035 E0.48541
G1 X103.065 Y24.342 E0.52181
G1 X103.318 Y24.155 E0.53228
G1 X104.22 Y23.554 E0.56833
G1 X104.453 Y23.415 E0.57735
G1 X105.484 Y22.872 E0.61611
G1 X105.779 Y22.736 E0.62691
G1 X106.447 Y22.455 E0.65102
G1 X106.567 Y22.409 E0.65529
G1 X107.794 Y22.019 E0.69811
G1 X108.211 Y21.913 E0.71242
G1 X109.306 Y21.693 E0.74957
G1 X109.69 Y21.636 E0.76248
G1 X110.613 Y21.539 E0.79335
G1 X110.724 Y21.532 E0.79705
G1 X111.273 Y21.511 E0.81532
G1 X112.184 Y21.5 E0.84563
G1 X118.913 Y21.5 E1.06943
G1 X119.758 Y21.51 E1.09754
G1 X120.089 Y21.519 E1.10855
G1 X120.252 Y21.526 E1.11398
G1 X120.748 Y21.559 E1.13051
G1 X121.159 Y21.595 E1.14423
G1 X123.731 Y21.785 E1.23001
G1 X126.298 Y21.902 E1.31548
G1 X128.783 Y21.945 E1.39814
G1 X131.273 Y21.917 E1.48097
G1 X133.816 Y21.817 E1.56561
G1 X136.849 Y21.604 E1.66674
G1 X137.279 Y21.566 E1.6811
G1 X137.592 Y21.543 E1.69154
G1 X137.829 Y21.529 E1.69943
G1 X138.335 Y21.511 E1.71627
G1 X139.246 Y21.5 E1.74657
G1 X146.116 Y21.501 E1.97507
G1 X146.82 Y21.51 E1.99849
G1 X147.171 Y21.52 E2.01017
G1 X147.305 Y21.526 E2.01463
G1 X148.415 Y21.632 E2.05172
G1 X148.843 Y21.695 E2.0661
G1 X149.99 Y21.927 E2.10503
G1 X150.389 Y22.03 E2.11873
G1 X151.599 Y22.418 E2.161
G1 X151.796 Y22.494 E2.16802
G1 X152.756 Y22.918 E2.20292
G1 X153.048 Y23.064 E2.21378
G1 X153.986 Y23.592 E2.24958
G1 X154.172 Y23.709 E2.25689
G1 X155.003 Y24.287 E2.29056
G1 X155.302 Y24.516 E2.30309
G1 X156.263 Y25.344 E2.34528
G1 X156.479 Y25.553 E2.35527
G1 X157.19 Y26.309 E2.38979
G1 X157.367 Y26.516 E2.39885
G1 X158.023 Y27.363 E2.43448
G1 X158.167 Y27.569 E2.44284
G1 X158.455 Y28.003 E2.46017
G1 X158.566 Y28.179 E2.46709
G1 X158.723 Y28.435 E2.47707
G1 X159.068 Y29.018 E2.49961
G1 X162.626 Y35.182 E2.73632
G1 X162.799 Y35.489 E2.74804
G1 X162.915 Y35.7 E2.75605
G1 X163.06 Y35.971 E2.76628
G1 X163.446 Y36.767 E2.7957
G1 X163.578 Y37.07 E2.80669
G1 X163.984 Y38.154 E2.84519
G1 X164.066 Y38.414 E2.85426
G1 X164.309 Y39.32 E2.88546
G1 X164.409 Y39.819 E2.90239
G1 X164.499 Y40.331 E2.91968
G1 X164.65 Y41.662 E2.96423
G1 X164.662 Y41.892 E2.97189
G1 X164.674 Y42.705 E2.99893
G1 X164.661 Y43.161 E3.01411
G1 X164.536 Y45.836 E3.10317
G1 X164.49 Y48.36 E3.18714
G1 X164.514 Y50.82 E3.26896
G1 X164.666 Y54.47 E3.39046
G1 X164.674 Y55.205 E3.41491
G1 X164.661 Y55.661 E3.43008
G1 X164.536 Y58.336 E3.51915
G1 X164.49 Y60.86 E3.60312
G1 X164.514 Y63.32 E3.68494
G1 X164.666 Y66.97 E3.80644
G1 X164.674 Y67.705 E3.83089
G1 X164.661 Y68.161 E3.84606
G1 X164.536 Y70.836 E3.93513
G1 X164.49 Y73.36 E4.01909
G1 X164.514 Y75.82 E4.10092
G1 X164.666 Y79.47 E4.22242
G1 X164.674 Y80.205 E4.24687
G1 X164.661 Y80.661 E4.26204
G1 X164.536 Y83.336 E4.35111
G1 X164.49 Y85.86 E4.43507
G1 X164.514 Y88.32 E4.5169
G1 X164.669 Y92.056 E4.64126
G1 X164.674 Y92.705 E4.66285
G1 X164.661 Y93.161 E4.67802
G1 X164.536 Y95.836 E4.76709
G1 X164.49 Y98.36 E4.85105
G1 X164.514 Y100.82 E4.93288
G1 X164.666 Y104.47 E5.05438
G1 X164.674 Y105.205 E5.07883
G1 X164.661 Y105.661 E5.094
G1 X164.536 Y108.336 E5.18307
G1 X164.49 Y110.86 E5.26703
G1 X164.514 Y113.32 E5.34886
G1 X164.649 Y116.574 E5.45718
G1 X164.664 Y116.885 E5.46754
G1 X164.671 Y117.09 E5.47436
G1 X164.674 Y117.705 E5.49481
G1 X164.661 Y118.161 E5.50999
G1 X164.536 Y120.836 E5.59905
G1 X164.49 Y123.36 E5.68302
G1 X164.514 Y125.82 E5.76484
G1 X164.666 Y129.47 E5.88634
G1 X164.674 Y130.205 E5.91079
G1 X164.661 Y130.661 E5.92596
G1 X164.536 Y133.336 E6.01503
G1 X164.49 Y135.86 E6.099
G1 X164.514 Y138.32 E6.18082
G1 X164.666 Y141.97 E6.30232
G1 X164.674 Y142.705 E6.32677
G1 X164.661 Y143.161 E6.34194
G1 X164.536 Y145.836 E6.43101
G1 X164.49 Y148.36 E6.51497
G1 X164.514 Y150.82 E6.5968
G1 X164.666 Y154.47 E6.7183
G1 X164.674 Y155.205 E6.74275
G1 X164.661 Y155.661 E6.75792
G1 X164.536 Y158.336 E6.84699
G1 X164.49 Y160.86 E6.93095
G1 X164.514 Y163.32 E7.01278
G1 X164.666 Y166.97 E7.13428
G1 X164.674 Y167.705 E7.15873
G1 X164.661 Y168.161 E7.1739
G1 X164.536 Y170.828 E7.26271
G1 X164.49 Y173.36 E7.34693
G1 X164.514 Y175.82 E7.42876
G1 X164.666 Y179.47 E7.55026
G1 X164.674 Y180.205 E7.57471
G1 X164.661 Y180.661 E7.58988
G1 X164.536 Y183.336 E7.67895
G1 X164.49 Y185.86 E7.76291
G1 X164.514 Y188.32 E7.84474
G1 X164.651 Y191.637 E7.95516
G1 X164.67 Y192.063 E7.96934
G1 X164.669 Y192.881 E7.99654
G1 X164.658 Y193.172 E8.00623
G1 X164.583 Y194.106 E8.0374
G1 X164.499 Y194.668 E8.0563
G1 X164.409 Y195.178 E8.07352
G1 X164.11 Y196.435 E8.11649
G1 X164.039 Y196.671 E8.12469
G1 X163.677 Y197.688 E8.1606
G1 X163.57 Y197.948 E8.16995
G1 X163.189 Y198.776 E8.20026
G1 X163.041 Y199.065 E8.21106
G1 X162.839 Y199.44 E8.22523
G1 X162.572 Y199.914 E8.24332
G1 X159.026 Y206.053 E8.47912
G1 X158.727 Y206.557 E8.49861
G1 X158.575 Y206.807 E8.50834
G1 X158.306 Y207.228 E8.52496
G1 X158.262 Y207.294 E8.5276
G1 X157.955 Y207.73 E8.54533
G1 X157.802 Y207.937 E8.5539
G1 X157.092 Y208.802 E8.59112
G1 X156.9 Y209.013 E8.6006
G1 X156.162 Y209.751 E8.63532
G1 X155.943 Y209.95 E8.64516
G1 X155.191 Y210.574 E8.67766
G1 X155.009 Y210.712 E8.68526
G1 X154.379 Y211.156 E8.71089
G1 X154.18 Y211.286 E8.7188
G1 X153.267 Y211.822 E8.75401
G1 X153.013 Y211.955 E8.76355
G1 X152.048 Y212.402 E8.79892
G1 X151.782 Y212.51 E8.80847
G1 X150.899 Y212.825 E8.83965
G1 X150.393 Y212.969 E8.85715
G1 X149.99 Y213.073 E8.87099
G1 X148.836 Y213.306 E8.91015
G1 X148.413 Y213.368 E8.92437
G1 X147.504 Y213.463 E8.95477
G1 X147.408 Y213.469 E8.95796
G1 X146.869 Y213.489 E8.9759
G1 X145.975 Y213.5 E9.00564
G1 X139.095 Y213.499 E9.23447
G1 X138.362 Y213.489 E9.25885
G1 X137.91 Y213.474 E9.27389
G1 X137.405 Y213.442 E9.29072
G1 X137.034 Y213.409 E9.30311
G1 X134.403 Y213.214 E9.39086
G1 X131.92 Y213.099 E9.47353
G1 X129.401 Y213.056 E9.55733
G1 X126.909 Y213.082 E9.64022
G1 X124.359 Y213.181 E9.72509
G1 X121.329 Y213.393 E9.82612
G1 X120.837 Y213.435 E9.84254
G1 X120.555 Y213.456 E9.85195
G1 X120.323 Y213.47 E9.85968
G1 X119.807 Y213.489 E9.87685
G1 X118.913 Y213.5 E9.90659
G1 X112.033 Y213.499 E10.13542
G1 X111.3 Y213.489 E10.1598
G1 X110.906 Y213.477 E10.17291
G1 X109.691 Y213.364 E10.2135
G1 X109.296 Y213.305 E10.22678
G1 X108.187 Y213.081 E10.26441
G1 X107.77 Y212.974 E10.27873
G1 X106.472 Y212.553 E10.32411
G1 X106.274 Y212.475 E10.33119
G1 X105.414 Y212.093 E10.36249
G1 X105.122 Y211.948 E10.37333
G1 X104.089 Y211.364 E10.4128
G1 X103.845 Y211.208 E10.42244
G1 X102.96 Y210.578 E10.45857
G1 X102.719 Y210.388 E10.46877
G1 X101.881 Y209.656 E10.50578
G1 X101.666 Y209.448 E10.51573
G1 X100.94 Y208.674 E10.55103
G1 X100.762 Y208.465 E10.56016
G1 X100.226 Y207.783 E10.58901
G1 X100.129 Y207.649 E10.59451
G1 X99.854 Y207.252 E10.61057
G1 X99.74 Y207.079 E10.61746
G1 X99.466 Y206.641 E10.63465
G1 X99.085 Y205.997 E10.65954
G1 X95.601 Y199.962 E10.89131
G1 X95.245 Y199.326 E10.91555
G1 X94.968 Y198.798 E10.93538
G1 X94.838 Y198.533 E10.9452
G1 X94.429 Y197.588 E10.97945
G1 X94.327 Y197.319 E10.98901
G1 X94.06 Y196.527 E11.01681
G1 X94.017 Y196.381 E11.02188
G1 X93.734 Y195.172 E11.06317
G1 X93.663 Y194.767 E11.07685
G1 X93.529 Y193.687 E11.11305
G1 X93.496 Y193.245 E11.12779
G1 X93.466 Y192.56 E11.15059
G1 X93.457 Y191.771 E11.17684
G1 X93.457 Y190.633 E11.21469
G1 X93.386 Y188.082 E11.29957
G1 X93.246 Y185.621 E11.38155
G1 X93.031 Y183.079 E11.4664
G1 X92.748 Y180.592 E11.54965
G1 X92.388 Y178.059 E11.63475
G1 X91.971 Y175.618 E11.71711
G1 X91.473 Y173.134 E11.80137
G1 X90.92 Y170.724 E11.88361
G1 X90.281 Y168.271 E11.96792
G1 X89.572 Y165.828 E12.05253
G1 X88.804 Y163.44 E12.13596
G1 X87.966 Y161.065 E12.21973
G1 X87.063 Y158.72 E12.30331
G1 X86.082 Y156.374 E12.38788
G1 X85.056 Y154.101 E12.47083
G1 X83.955 Y151.835 E12.55462
G1 X82.798 Y149.616 E12.63785
G1 X81.558 Y147.395 E12.72246
G1 X80.272 Y145.235 E12.80607
G1 X78.936 Y143.129 E12.88902
G1 X77.506 Y141.011 E12.97402
G1 X76.064 Y139.002 E13.05627
G1 X74.522 Y136.975 E13.14098
G1 X73.219 Y135.342 E13.21046
G1 X72.965 Y135.015 E13.22423
G1 X72.714 Y134.679 E13.23818
G1 X72.511 Y134.396 E13.24977
G1 X72.263 Y134.035 E13.26433
G1 X72.099 Y133.786 E13.27425
G1 X71.836 Y133.366 E13.29073
G1 X71.615 Y132.987 E13.30533
G1 X71.463 Y132.714 E13.31572
G1 X71.035 Y131.86 E13.34749
G1 X70.979 Y131.735 E13.35205
G1 X70.836 Y131.402 E13.3641
G1 X70.699 Y131.067 E13.37614
G1 X70.534 Y130.637 E13.39146
G1 X70.438 Y130.371 E13.40086
G1 X70.202 Y129.638 E13.42647
G1 X70.071 Y129.143 E13.4435
G1 X69.937 Y128.586 E13.46256
G1 X69.762 Y127.7 E13.4926
G1 X69.726 Y127.468 E13.50041
G1 X69.669 Y127.048 E13.5145
G1 X69.619 Y126.549 E13.53118
G1 X69.595 Y126.239 E13.54152
G1 X69.574 Y125.907 E13.55259
G1 X69.562 Y125.652 E13.56108
G1 X69.55 Y125.219 E13.57549
G1 X69.547 Y124.741 E13.59138
G1 X69.548 Y117.852 E13.82051
G1 X69.553 Y117.522 E13.83149
G1 X69.566 Y117.091 E13.84583
G1 X69.594 Y116.574 E13.86305
G1 X69.619 Y116.251 E13.87383
G1 X69.699 Y115.53 E13.89796
G1 X69.744 Y115.218 E13.90844
G1 X69.935 Y114.221 E13.9422
G1 X70.264 Y112.85 E13.9891
G1 X70.336 Y112.563 E13.99894
G1 X70.904 Y110.162 E14.081
G1 X71.425 Y107.639 E14.16669
G1 X71.857 Y105.188 E14.24946
G1 X72.22 Y102.734 E14.33197
G1 X72.524 Y100.184 E14.41739
G1 X72.746 Y97.73 E14.49934
G1 X72.934 Y94.574 E14.6045
G1 X72.976 Y93.584 E14.63745
G1 X73.056 Y92.65 E14.66863
G1 X73.215 Y91.725 E14.69985
G1 X73.453 Y90.818 E14.73104
G1 X73.767 Y89.934 E14.76224
G1 X74.155 Y89.08 E14.79344
G1 X74.614 Y88.263 E14.8246
G1 X75.116 Y87.521 E14.8544
G1 X75.494 Y87.011 E14.87552
G1 X76.487 Y85.705 E14.93008
G1 X77.944 Y83.676 E15.01316
G1 X79.361 Y81.577 E15.0974
G1 X80.704 Y79.464 E15.18067
G1 X81.998 Y77.292 E15.26476
G1 X83.228 Y75.09 E15.34865
G1 X84.393 Y72.858 E15.43239
G1 X85.496 Y70.591 E15.51624
G1 X86.534 Y68.294 E15.60008
G1 X87.498 Y65.988 E15.68321
G1 X88.415 Y63.611 E15.76795
G1 X89.239 Y61.274 E15.85037
G1 X90.018 Y58.852 E15.93499
G1 X90.718 Y56.449 E16.01823
G1 X91.35 Y54.018 E16.10178
G1 X91.916 Y51.564 E16.18554
G1 X92.424 Y49.04 E16.27117
G1 X92.836 Y46.63 E16.35249
G1 X93.193 Y44.126 E16.43662
G1 X93.394 Y42.309 E16.49742
G1 X93.44 Y42.01 E16.50748
G1 X93.545 Y41.043 E16.53983
G1 X93.647 Y40.325 E16.56395
G1 X93.734 Y39.83 E16.58067
G1 X94.036 Y38.561 E16.62405
G1 X94.105 Y38.332 E16.63201
G1 X94.466 Y37.315 E16.6679
G0 F6000 X94.836 Y37.467
G1 F1200 X94.946 Y37.2 E16.67751
G1 X95.266 Y36.498 E16.70317
G1 X95.345 Y36.34 E16.70904
G1 X95.569 Y35.915 E16.72502
G1 X96.037 Y35.079 E16.75689
G1 X99.498 Y29.089 E16.98698
G1 X99.76 Y28.648 E17.00404
G1 X99.902 Y28.416 E17.01309
G1 X100.048 Y28.184 E17.02221
G1 X100.503 Y27.518 E17.04903
G1 X100.672 Y27.29 E17.05847
G1 X101.331 Y26.486 E17.09305
G1 X101.523 Y26.274 E17.10256
G1 X102.264 Y25.534 E17.13739
G1 X102.487 Y25.332 E17.1474
G1 X103.302 Y24.664 E17.18245
G1 X103.555 Y24.477 E17.19291
G1 X104.425 Y23.898 E17.22767
G1 X104.658 Y23.759 E17.2367
G1 X105.651 Y23.236 E17.27402
G1 X105.946 Y23.1 E17.28483
G1 X106.59 Y22.828 E17.30808
G1 X106.71 Y22.782 E17.31235
G1 X107.893 Y22.407 E17.35363
G1 X108.31 Y22.301 E17.36794
G1 X109.365 Y22.089 E17.40373
G1 X109.749 Y22.032 E17.41664
G1 X110.638 Y21.938 E17.44638
G1 X110.749 Y21.931 E17.45008
G1 X111.278 Y21.911 E17.46768
G1 X112.184 Y21.9 E17.49782
G1 X118.913 Y21.9 E17.72163
G1 X119.753 Y21.91 E17.74957
G1 X120.072 Y21.919 E17.76018
G1 X120.235 Y21.926 E17.76561
G1 X120.713 Y21.957 E17.78154
G1 X121.162 Y21.997 E17.79653
G1 X123.72 Y22.185 E17.88184
G1 X126.273 Y22.302 E17.96684
G1 X128.781 Y22.345 E18.05027
G1 X131.294 Y22.317 E18.13386
G1 X133.827 Y22.217 E18.21817
G1 X136.912 Y22 E18.32103
G1 X137.314 Y21.965 E18.33446
G1 X137.616 Y21.942 E18.34453
G1 X137.853 Y21.928 E18.35243
G1 X138.34 Y21.911 E18.36863
G1 X139.246 Y21.9 E18.39877
G1 X146.111 Y21.901 E18.6271
G1 X146.815 Y21.91 E18.65052
G1 X147.153 Y21.92 E18.66176
G1 X147.287 Y21.926 E18.66622
G1 X148.357 Y22.028 E18.70197
G1 X148.785 Y22.091 E18.71636
G1 X149.89 Y22.314 E18.75386
G1 X150.289 Y22.417 E18.76756
G1 X151.455 Y22.791 E18.80829
G1 X151.652 Y22.867 E18.81531
G1 X152.577 Y23.276 E18.84895
G1 X152.869 Y23.422 E18.85981
G1 X153.773 Y23.931 E18.89432
G1 X153.959 Y24.048 E18.90162
G1 X154.76 Y24.605 E18.93407
G1 X155.059 Y24.834 E18.9466
G1 X155.985 Y25.631 E18.98724
G1 X156.201 Y25.84 E18.99723
G1 X156.886 Y26.569 E19.0305
G1 X157.063 Y26.776 E19.03956
G1 X157.695 Y27.592 E19.07389
G1 X157.839 Y27.798 E19.08225
G1 X158.117 Y28.216 E19.09895
G1 X158.228 Y28.392 E19.10587
G1 X158.379 Y28.639 E19.1155
G1 X158.722 Y29.218 E19.13788
G1 X162.278 Y35.378 E19.37445
G1 X162.451 Y35.685 E19.38617
G1 X162.707 Y36.159 E19.40409
G1 X163.079 Y36.926 E19.43244
G1 X163.211 Y37.229 E19.44343
G1 X163.602 Y38.275 E19.48057
G1 X163.684 Y38.535 E19.48964
G1 X163.923 Y39.424 E19.52026
G1 X164.015 Y39.888 E19.53599
G1 X164.105 Y40.4 E19.55328
G1 X164.251 Y41.683 E19.59623
G1 X164.263 Y41.913 E19.60389
G1 X164.274 Y42.697 E19.62997
G1 X164.261 Y43.143 E19.64481
G1 X164.136 Y45.811 E19.73365
G1 X164.09 Y48.357 E19.81834
G1 X164.114 Y50.84 E19.90093
G1 X164.266 Y54.488 E20.02237
G1 X164.274 Y55.197 E20.04595
G1 X164.261 Y55.643 E20.06079
G1 X164.136 Y58.311 E20.14963
G1 X164.09 Y60.857 E20.23432
G1 X164.114 Y63.34 E20.31691
G1 X164.266 Y66.988 E20.43835
G1 X164.274 Y67.697 E20.46193
G1 X164.261 Y68.143 E20.47677
G1 X164.136 Y70.811 E20.56561
G1 X164.09 Y73.357 E20.6503
G1 X164.114 Y75.84 E20.73289
G1 X164.266 Y79.488 E20.85433
G1 X164.274 Y80.197 E20.87791
G1 X164.261 Y80.643 E20.89275
G1 X164.136 Y83.311 E20.98159
G1 X164.09 Y85.857 E21.06628
G1 X164.114 Y88.34 E21.14887
G1 X164.25 Y91.622 E21.25812
G1 X164.27 Y92.071 E21.27307
G1 X164.274 Y92.697 E21.29389
G1 X164.261 Y93.143 E21.30873
G1 X164.136 Y95.811 E21.39757
G1 X164.09 Y98.357 E21.48226
G1 X164.114 Y100.84 E21.56485
G1 X164.266 Y104.488 E21.68629
G1 X164.274 Y105.197 E21.70987
G1 X164.261 Y105.643 E21.72471
G1 X164.136 Y108.311 E21.81355
G1 X164.09 Y110.857 E21.89824
G1 X164.114 Y113.34 E21.98083
G1 X164.249 Y116.599 E22.08932
G1 X164.264 Y116.898 E22.09928
G1 X164.271 Y117.103 E22.1061
G1 X164.274 Y117.697 E22.12585
G1 X164.261 Y118.143 E22.14069
G1 X164.136 Y120.811 E22.22953
G1 X164.09 Y123.357 E22.31422
G1 X164.114 Y125.84 E22.39681
G1 X164.266 Y129.488 E22.51825
G1 X164.274 Y130.197 E22.54183
G1 X164.261 Y130.643 E22.55667
G1 X164.136 Y133.311 E22.64551
